(Exported by FreeCAD)
(Post Processor: grbl_post)
(Output Time:2021-08-22 17:37:52.484471)
(Begin preamble)
G17 G90
G21
(Begin operation: Fixture)
(Path: Fixture)
G54
(Finish operation: Fixture)
(Begin operation: 4mm_1Flute_Endmill001)
(Path: 4mm_1Flute_Endmill001)
(4mm_1Flute_Endmill001)
(Begin toolchange)
( M6 T1.0 )
M3 S0.0
(Finish operation: 4mm_1Flute_Endmill001)
(Begin operation: RampEntryDressup)
(Path: RampEntryDressup)
G0 X0.000 Y0.000 Z5.000
G0 X34.889 Y15.231 Z5.000
G0 X34.889 Y15.231 Z3.000
G1 X35.123 Y15.520 Z2.789 F200.000
G1 X35.292 Y15.847 Z2.572 F200.000
G1 X35.392 Y16.201 Z2.355 F200.000
G1 X35.420 Y16.572 Z2.144 F200.000
G1 X35.435 Y17.216 Z1.772 F200.000
G1 X35.410 Y17.860 Z1.400 F200.000
G1 X35.435 Y17.216 Z1.028 F200.000
G1 X35.420 Y16.572 Z0.656 F200.000
G1 X35.392 Y16.201 Z0.445 F200.000
G1 X35.292 Y15.847 Z0.228 F200.000
G1 X35.123 Y15.520 Z0.011 F200.000
G1 X34.889 Y15.231 Z-0.200 F200.000
G3 X35.420 Y16.572 Z-0.200 I-1.300 J1.290 K0.000 F200.000
G3 X35.397 Y18.026 Z-0.200 I-10.308 J0.562 K0.000 F200.000
G3 X35.279 Y18.449 Z-0.200 I-1.547 J-0.203 K0.000 F200.000
G1 X31.802 Y14.972 Z-0.200 F200.000
G2 X31.029 Y17.027 Z-0.200 I0.931 J1.523 K0.000 F200.000
G1 X33.566 Y19.564 Z-0.200 F200.000
G3 X32.094 Y18.732 Z-0.200 I0.052 J-1.809 K0.000 F200.000
G3 X31.139 Y17.309 Z-0.200 I9.974 J-7.726 K0.000 F200.000
G3 X31.029 Y17.027 Z-0.200 I0.979 J-0.546 K0.000 F200.000
G1 X31.082 Y17.191 Z-0.300 F200.000
G1 X31.029 Y17.027 Z-0.400 F200.000
G2 X31.139 Y17.309 Z-0.400 I1.090 J-0.263 K0.000 F200.000
G2 X32.094 Y18.732 Z-0.400 I10.929 J-6.304 K0.000 F200.000
G2 X33.566 Y19.564 Z-0.400 I1.523 J-0.978 K0.000 F200.000
G1 X31.029 Y17.027 Z-0.400 F200.000
G3 X31.802 Y14.972 Z-0.400 I1.704 J-0.532 K0.000 F200.000
G1 X35.279 Y18.449 Z-0.400 F200.000
G2 X35.397 Y18.026 Z-0.400 I-1.430 J-0.625 K0.000 F200.000
G2 X35.420 Y16.572 Z-0.400 I-10.285 J-0.892 K0.000 F200.000
G2 X34.889 Y15.231 Z-0.400 I-1.830 J-0.052 K0.000 F200.000
G1 X35.005 Y15.359 Z-0.500 F200.000
G1 X34.889 Y15.231 Z-0.600 F200.000
G3 X35.420 Y16.572 Z-0.600 I-1.300 J1.290 K0.000 F200.000
G3 X35.397 Y18.026 Z-0.600 I-10.308 J0.562 K0.000 F200.000
G3 X35.279 Y18.449 Z-0.600 I-1.547 J-0.203 K0.000 F200.000
G1 X31.802 Y14.972 Z-0.600 F200.000
G2 X31.029 Y17.027 Z-0.600 I0.931 J1.523 K0.000 F200.000
G1 X33.566 Y19.564 Z-0.600 F200.000
G3 X32.094 Y18.732 Z-0.600 I0.052 J-1.809 K0.000 F200.000
G3 X31.139 Y17.309 Z-0.600 I9.974 J-7.726 K0.000 F200.000
G3 X31.029 Y17.027 Z-0.600 I0.979 J-0.546 K0.000 F200.000
G1 X31.082 Y17.191 Z-0.700 F200.000
G1 X31.029 Y17.027 Z-0.800 F200.000
G2 X31.139 Y17.309 Z-0.800 I1.090 J-0.263 K0.000 F200.000
G2 X32.094 Y18.732 Z-0.800 I10.929 J-6.304 K0.000 F200.000
G2 X33.566 Y19.564 Z-0.800 I1.523 J-0.978 K0.000 F200.000
G1 X31.029 Y17.027 Z-0.800 F200.000
G3 X31.802 Y14.972 Z-0.800 I1.704 J-0.532 K0.000 F200.000
G1 X35.279 Y18.449 Z-0.800 F200.000
G2 X35.397 Y18.026 Z-0.800 I-1.430 J-0.625 K0.000 F200.000
G2 X35.420 Y16.572 Z-0.800 I-10.285 J-0.892 K0.000 F200.000
G2 X34.889 Y15.231 Z-0.800 I-1.830 J-0.052 K0.000 F200.000
G1 X35.005 Y15.359 Z-0.900 F200.000
G1 X34.889 Y15.231 Z-1.000 F200.000
G3 X35.420 Y16.572 Z-1.000 I-1.300 J1.290 K0.000 F200.000
G3 X35.397 Y18.026 Z-1.000 I-10.308 J0.562 K0.000 F200.000
G3 X35.279 Y18.449 Z-1.000 I-1.547 J-0.203 K0.000 F200.000
G1 X31.802 Y14.972 Z-1.000 F200.000
G2 X31.029 Y17.027 Z-1.000 I0.931 J1.523 K0.000 F200.000
G1 X33.566 Y19.564 Z-1.000 F200.000
G3 X32.094 Y18.732 Z-1.000 I0.052 J-1.809 K0.000 F200.000
G3 X31.139 Y17.309 Z-1.000 I9.974 J-7.726 K0.000 F200.000
G3 X31.029 Y17.027 Z-1.000 I0.979 J-0.546 K0.000 F200.000
G1 X31.082 Y17.191 Z-1.100 F200.000
G1 X31.029 Y17.027 Z-1.200 F200.000
G2 X31.139 Y17.309 Z-1.200 I1.090 J-0.263 K0.000 F200.000
G2 X32.094 Y18.732 Z-1.200 I10.929 J-6.304 K0.000 F200.000
G2 X33.566 Y19.564 Z-1.200 I1.523 J-0.978 K0.000 F200.000
G1 X31.029 Y17.027 Z-1.200 F200.000
G3 X31.802 Y14.972 Z-1.200 I1.704 J-0.532 K0.000 F200.000
G1 X35.279 Y18.449 Z-1.200 F200.000
G2 X35.397 Y18.026 Z-1.200 I-1.430 J-0.625 K0.000 F200.000
G2 X35.420 Y16.572 Z-1.200 I-10.285 J-0.892 K0.000 F200.000
G2 X34.889 Y15.231 Z-1.200 I-1.830 J-0.052 K0.000 F200.000
G1 X35.005 Y15.359 Z-1.300 F200.000
G1 X34.889 Y15.231 Z-1.400 F200.000
G3 X35.420 Y16.572 Z-1.400 I-1.300 J1.290 K0.000 F200.000
G3 X35.397 Y18.026 Z-1.400 I-10.308 J0.562 K0.000 F200.000
G3 X35.279 Y18.449 Z-1.400 I-1.547 J-0.203 K0.000 F200.000
G1 X31.802 Y14.972 Z-1.400 F200.000
G2 X31.029 Y17.027 Z-1.400 I0.931 J1.523 K0.000 F200.000
G1 X33.566 Y19.564 Z-1.400 F200.000
G3 X32.094 Y18.732 Z-1.400 I0.052 J-1.809 K0.000 F200.000
G3 X31.139 Y17.309 Z-1.400 I9.974 J-7.726 K0.000 F200.000
G3 X31.029 Y17.027 Z-1.400 I0.979 J-0.546 K0.000 F200.000
G1 X31.082 Y17.191 Z-1.500 F200.000
G1 X31.029 Y17.027 Z-1.600 F200.000
G2 X31.139 Y17.309 Z-1.600 I1.090 J-0.263 K0.000 F200.000
G2 X32.094 Y18.732 Z-1.600 I10.929 J-6.304 K0.000 F200.000
G2 X33.566 Y19.564 Z-1.600 I1.523 J-0.978 K0.000 F200.000
G1 X31.029 Y17.027 Z-1.600 F200.000
G3 X31.802 Y14.972 Z-1.600 I1.704 J-0.532 K0.000 F200.000
G1 X35.279 Y18.449 Z-1.600 F200.000
G2 X35.397 Y18.026 Z-1.600 I-1.430 J-0.625 K0.000 F200.000
G2 X35.420 Y16.572 Z-1.600 I-10.285 J-0.892 K0.000 F200.000
G2 X34.889 Y15.231 Z-1.600 I-1.830 J-0.052 K0.000 F200.000
G1 X35.005 Y15.359 Z-1.700 F200.000
G1 X34.889 Y15.231 Z-1.800 F200.000
G3 X35.420 Y16.572 Z-1.800 I-1.300 J1.290 K0.000 F200.000
G3 X35.397 Y18.026 Z-1.800 I-10.308 J0.562 K0.000 F200.000
G3 X35.279 Y18.449 Z-1.800 I-1.547 J-0.203 K0.000 F200.000
G1 X31.802 Y14.972 Z-1.800 F200.000
G2 X31.029 Y17.027 Z-1.800 I0.931 J1.523 K0.000 F200.000
G1 X33.566 Y19.564 Z-1.800 F200.000
G3 X32.094 Y18.732 Z-1.800 I0.052 J-1.809 K0.000 F200.000
G3 X31.139 Y17.309 Z-1.800 I9.974 J-7.726 K0.000 F200.000
G3 X31.029 Y17.027 Z-1.800 I0.979 J-0.546 K0.000 F200.000
G1 X31.082 Y17.191 Z-1.900 F200.000
G1 X31.029 Y17.027 Z-2.000 F200.000
G2 X31.139 Y17.309 Z-2.000 I1.090 J-0.263 K0.000 F200.000
G2 X32.094 Y18.732 Z-2.000 I10.929 J-6.304 K0.000 F200.000
G2 X33.566 Y19.564 Z-2.000 I1.523 J-0.978 K0.000 F200.000
G1 X31.029 Y17.027 Z-2.000 F200.000
G3 X31.802 Y14.972 Z-2.000 I1.704 J-0.532 K0.000 F200.000
G1 X35.279 Y18.449 Z-2.000 F200.000
G2 X35.397 Y18.026 Z-2.000 I-1.430 J-0.625 K0.000 F200.000
G2 X35.420 Y16.572 Z-2.000 I-10.285 J-0.892 K0.000 F200.000
G2 X34.889 Y15.231 Z-2.000 I-1.830 J-0.052 K0.000 F200.000
G1 X35.005 Y15.359 Z-2.100 F200.000
G1 X34.889 Y15.231 Z-2.200 F200.000
G3 X35.420 Y16.572 Z-2.200 I-1.300 J1.290 K0.000 F200.000
G3 X35.397 Y18.026 Z-2.200 I-10.308 J0.562 K0.000 F200.000
G3 X35.279 Y18.449 Z-2.200 I-1.547 J-0.203 K0.000 F200.000
G1 X31.802 Y14.972 Z-2.200 F200.000
G2 X31.029 Y17.027 Z-2.200 I0.931 J1.523 K0.000 F200.000
G1 X33.566 Y19.564 Z-2.200 F200.000
G3 X32.094 Y18.732 Z-2.200 I0.052 J-1.809 K0.000 F200.000
G3 X31.139 Y17.309 Z-2.200 I9.974 J-7.726 K0.000 F200.000
G3 X31.029 Y17.027 Z-2.200 I0.979 J-0.546 K0.000 F200.000
G1 X31.082 Y17.191 Z-2.300 F200.000
G1 X31.029 Y17.027 Z-2.400 F200.000
G2 X31.139 Y17.309 Z-2.400 I1.090 J-0.263 K0.000 F200.000
G2 X32.094 Y18.732 Z-2.400 I10.929 J-6.304 K0.000 F200.000
G2 X33.566 Y19.564 Z-2.400 I1.523 J-0.978 K0.000 F200.000
G1 X31.029 Y17.027 Z-2.400 F200.000
G3 X31.802 Y14.972 Z-2.400 I1.704 J-0.532 K0.000 F200.000
G1 X35.279 Y18.449 Z-2.400 F200.000
G2 X35.397 Y18.026 Z-2.400 I-1.430 J-0.625 K0.000 F200.000
G2 X35.420 Y16.572 Z-2.400 I-10.285 J-0.892 K0.000 F200.000
G2 X34.889 Y15.231 Z-2.400 I-1.830 J-0.052 K0.000 F200.000
G1 X35.005 Y15.359 Z-2.500 F200.000
G1 X34.889 Y15.231 Z-2.600 F200.000
G3 X35.420 Y16.572 Z-2.600 I-1.300 J1.290 K0.000 F200.000
G3 X35.397 Y18.026 Z-2.600 I-10.308 J0.562 K0.000 F200.000
G3 X35.279 Y18.449 Z-2.600 I-1.547 J-0.203 K0.000 F200.000
G1 X31.802 Y14.972 Z-2.600 F200.000
G2 X31.029 Y17.027 Z-2.600 I0.931 J1.523 K0.000 F200.000
G1 X33.566 Y19.564 Z-2.600 F200.000
G3 X32.094 Y18.732 Z-2.600 I0.052 J-1.809 K0.000 F200.000
G3 X31.139 Y17.309 Z-2.600 I9.974 J-7.726 K0.000 F200.000
G3 X31.029 Y17.027 Z-2.600 I0.979 J-0.546 K0.000 F200.000
G1 X31.082 Y17.191 Z-2.700 F200.000
G1 X31.029 Y17.027 Z-2.800 F200.000
G2 X31.139 Y17.309 Z-2.800 I1.090 J-0.263 K0.000 F200.000
G2 X32.094 Y18.732 Z-2.800 I10.929 J-6.304 K0.000 F200.000
G2 X33.566 Y19.564 Z-2.800 I1.523 J-0.978 K0.000 F200.000
G1 X31.029 Y17.027 Z-2.800 F200.000
G3 X31.802 Y14.972 Z-2.800 I1.704 J-0.532 K0.000 F200.000
G1 X35.279 Y18.449 Z-2.800 F200.000
G2 X35.397 Y18.026 Z-2.800 I-1.430 J-0.625 K0.000 F200.000
G2 X35.420 Y16.572 Z-2.800 I-10.285 J-0.892 K0.000 F200.000
G2 X34.889 Y15.231 Z-2.800 I-1.830 J-0.052 K0.000 F200.000
G1 X35.005 Y15.359 Z-2.900 F200.000
G1 X34.889 Y15.231 Z-3.000 F200.000
G3 X35.420 Y16.572 Z-3.000 I-1.300 J1.290 K0.000 F200.000
G3 X35.397 Y18.026 Z-3.000 I-10.308 J0.562 K0.000 F200.000
G3 X35.279 Y18.449 Z-3.000 I-1.547 J-0.203 K0.000 F200.000
G1 X31.802 Y14.972 Z-3.000 F200.000
G2 X31.029 Y17.027 Z-3.000 I0.931 J1.523 K0.000 F200.000
G1 X33.566 Y19.564 Z-3.000 F200.000
G3 X32.094 Y18.732 Z-3.000 I0.052 J-1.809 K0.000 F200.000
G3 X31.139 Y17.309 Z-3.000 I9.974 J-7.726 K0.000 F200.000
G3 X31.029 Y17.027 Z-3.000 I0.979 J-0.546 K0.000 F200.000
G1 X31.082 Y17.191 Z-3.100 F200.000
G1 X31.029 Y17.027 Z-3.200 F200.000
G2 X31.139 Y17.309 Z-3.200 I1.090 J-0.263 K0.000 F200.000
G2 X32.094 Y18.732 Z-3.200 I10.929 J-6.304 K0.000 F200.000
G2 X33.566 Y19.564 Z-3.200 I1.523 J-0.978 K0.000 F200.000
G1 X31.029 Y17.027 Z-3.200 F200.000
G3 X31.802 Y14.972 Z-3.200 I1.704 J-0.532 K0.000 F200.000
G1 X35.279 Y18.449 Z-3.200 F200.000
G2 X35.397 Y18.026 Z-3.200 I-1.430 J-0.625 K0.000 F200.000
G2 X35.420 Y16.572 Z-3.200 I-10.285 J-0.892 K0.000 F200.000
G2 X34.889 Y15.231 Z-3.200 I-1.830 J-0.052 K0.000 F200.000
G1 X35.005 Y15.359 Z-3.300 F200.000
G1 X34.889 Y15.231 Z-3.400 F200.000
G3 X35.420 Y16.572 Z-3.400 I-1.300 J1.290 K0.000 F200.000
G3 X35.397 Y18.026 Z-3.400 I-10.308 J0.562 K0.000 F200.000
G3 X35.279 Y18.449 Z-3.400 I-1.547 J-0.203 K0.000 F200.000
G1 X31.802 Y14.972 Z-3.400 F200.000
G2 X31.029 Y17.027 Z-3.400 I0.931 J1.523 K0.000 F200.000
G1 X33.566 Y19.564 Z-3.400 F200.000
G3 X32.094 Y18.732 Z-3.400 I0.052 J-1.809 K0.000 F200.000
G3 X31.139 Y17.309 Z-3.400 I9.974 J-7.726 K0.000 F200.000
G3 X31.029 Y17.027 Z-3.400 I0.979 J-0.546 K0.000 F200.000
G1 X31.082 Y17.191 Z-3.500 F200.000
G1 X31.029 Y17.027 Z-3.600 F200.000
G2 X31.139 Y17.309 Z-3.600 I1.090 J-0.263 K0.000 F200.000
G2 X32.094 Y18.732 Z-3.600 I10.929 J-6.304 K0.000 F200.000
G2 X33.566 Y19.564 Z-3.600 I1.523 J-0.978 K0.000 F200.000
G1 X31.029 Y17.027 Z-3.600 F200.000
G3 X31.802 Y14.972 Z-3.600 I1.704 J-0.532 K0.000 F200.000
G1 X35.279 Y18.449 Z-3.600 F200.000
G2 X35.397 Y18.026 Z-3.600 I-1.430 J-0.625 K0.000 F200.000
G2 X35.420 Y16.572 Z-3.600 I-10.285 J-0.892 K0.000 F200.000
G2 X34.889 Y15.231 Z-3.600 I-1.830 J-0.052 K0.000 F200.000
G1 X35.005 Y15.359 Z-3.700 F200.000
G1 X34.889 Y15.231 Z-3.800 F200.000
G3 X35.420 Y16.572 Z-3.800 I-1.300 J1.290 K0.000 F200.000
G3 X35.397 Y18.026 Z-3.800 I-10.308 J0.562 K0.000 F200.000
G3 X35.279 Y18.449 Z-3.800 I-1.547 J-0.203 K0.000 F200.000
G1 X31.802 Y14.972 Z-3.800 F200.000
G2 X31.029 Y17.027 Z-3.800 I0.931 J1.523 K0.000 F200.000
G1 X33.566 Y19.564 Z-3.800 F200.000
G3 X32.094 Y18.732 Z-3.800 I0.052 J-1.809 K0.000 F200.000
G3 X31.139 Y17.309 Z-3.800 I9.974 J-7.726 K0.000 F200.000
G3 X31.029 Y17.027 Z-3.800 I0.979 J-0.546 K0.000 F200.000
G1 X31.082 Y17.191 Z-3.900 F200.000
G1 X31.029 Y17.027 Z-4.000 F200.000
G2 X31.139 Y17.309 Z-4.000 I1.090 J-0.263 K0.000 F200.000
G2 X32.094 Y18.732 Z-4.000 I10.929 J-6.304 K0.000 F200.000
G2 X33.566 Y19.564 Z-4.000 I1.523 J-0.978 K0.000 F200.000
G1 X31.029 Y17.027 Z-4.000 F200.000
G3 X31.802 Y14.972 Z-4.000 I1.704 J-0.532 K0.000 F200.000
G1 X35.279 Y18.449 Z-4.000 F200.000
G2 X35.397 Y18.026 Z-4.000 I-1.430 J-0.625 K0.000 F200.000
G2 X35.420 Y16.572 Z-4.000 I-10.285 J-0.892 K0.000 F200.000
G2 X34.889 Y15.231 Z-4.000 I-1.830 J-0.052 K0.000 F200.000
G1 X34.949 Y15.293 Z-4.050 F200.000
G1 X34.889 Y15.231 Z-4.100 F200.000
G3 X35.420 Y16.572 Z-4.100 I-1.300 J1.290 K0.000 F200.000
G3 X35.397 Y18.026 Z-4.100 I-10.308 J0.562 K0.000 F200.000
G3 X35.279 Y18.449 Z-4.100 I-1.547 J-0.203 K0.000 F200.000
G1 X31.802 Y14.972 Z-4.100 F200.000
G2 X31.029 Y17.027 Z-4.100 I0.931 J1.523 K0.000 F200.000
G1 X33.566 Y19.564 Z-4.100 F200.000
G3 X32.094 Y18.732 Z-4.100 I0.052 J-1.809 K0.000 F200.000
G3 X31.139 Y17.309 Z-4.100 I9.974 J-7.726 K0.000 F200.000
G3 X31.029 Y17.027 Z-4.100 I0.979 J-0.546 K0.000 F200.000
G0 X31.029 Y17.027 Z5.000
G0 X49.628 Y43.343 Z5.000
G0 X49.628 Y43.343 Z3.000
G1 X50.120 Y43.831 Z2.601 F200.000
G1 X50.573 Y44.355 Z2.200 F200.000
G1 X50.984 Y44.912 Z1.799 F200.000
G1 X51.351 Y45.500 Z1.400 F200.000
G1 X50.984 Y44.912 Z1.001 F200.000
G1 X50.573 Y44.355 Z0.600 F200.000
G1 X50.120 Y43.831 Z0.199 F200.000
G1 X49.628 Y43.343 Z-0.200 F200.000
G3 X52.490 Y49.033 Z-0.200 I-6.080 J6.622 K0.000 F200.000
G1 X44.467 Y41.010 Z-0.200 F200.000
G2 X41.757 Y41.129 Z-0.200 I-0.991 J8.388 K0.000 F200.000
G1 X52.371 Y51.743 Z-0.200 F200.000
G3 X51.671 Y53.871 Z-0.200 I-8.077 J-1.482 K0.000 F200.000
G1 X39.629 Y41.829 Z-0.200 F200.000
G2 X37.882 Y42.911 Z-0.200 I3.497 J7.601 K0.000 F200.000
G1 X50.589 Y55.618 Z-0.200 F200.000
G3 X49.180 Y57.037 Z-0.200 I-6.506 J-5.053 K0.000 F200.000
G1 X36.463 Y44.320 Z-0.200 F200.000
G2 X35.367 Y46.052 Z-0.200 I6.288 J5.193 K0.000 F200.000
G1 X47.448 Y58.133 Z-0.200 F200.000
G3 X45.338 Y58.852 Z-0.200 I-3.654 J-7.273 K0.000 F200.000
G1 X34.648 Y48.162 Z-0.200 F200.000
G2 X34.494 Y50.836 Z-0.200 I8.385 J1.826 K0.000 F200.000
G1 X42.664 Y59.006 Z-0.200 F200.000
G3 X38.037 Y57.207 Z-0.200 I0.802 J-8.914 K0.000 F200.000
G3 X36.293 Y55.463 Z-0.200 I5.144 J-6.888 K0.000 F200.000
G1 X38.037 Y57.207 Z-0.200 F200.000
G1 X37.914 Y57.085 Z-0.300 F200.000
G1 X38.037 Y57.207 Z-0.400 F200.000
G1 X36.293 Y55.463 Z-0.400 F200.000
G2 X38.037 Y57.207 Z-0.400 I6.888 J-5.144 K0.000 F200.000
G2 X42.664 Y59.006 Z-0.400 I5.429 J-7.116 K0.000 F200.000
G1 X34.494 Y50.836 Z-0.400 F200.000
G3 X34.648 Y48.162 Z-0.400 I8.540 J-0.848 K0.000 F200.000
G1 X45.338 Y58.852 Z-0.400 F200.000
G2 X47.448 Y58.133 Z-0.400 I-1.545 J-7.991 K0.000 F200.000
G1 X35.367 Y46.052 Z-0.400 F200.000
G3 X36.463 Y44.320 Z-0.400 I7.384 J3.460 K0.000 F200.000
G1 X49.180 Y57.037 Z-0.400 F200.000
G2 X50.589 Y55.618 Z-0.400 I-5.096 J-6.472 K0.000 F200.000
G1 X37.882 Y42.911 Z-0.400 F200.000
G3 X39.629 Y41.829 Z-0.400 I5.244 J6.520 K0.000 F200.000
G1 X51.671 Y53.871 Z-0.400 F200.000
G2 X52.371 Y51.743 Z-0.400 I-7.376 J-3.609 K0.000 F200.000
G1 X41.757 Y41.129 Z-0.400 F200.000
G3 X44.467 Y41.010 Z-0.400 I1.719 J8.270 K0.000 F200.000
G1 X52.490 Y49.033 Z-0.400 F200.000
G2 X49.628 Y43.343 Z-0.400 I-8.941 J0.932 K0.000 F200.000
G1 X49.755 Y43.461 Z-0.500 F200.000
G1 X49.628 Y43.343 Z-0.600 F200.000
G3 X52.490 Y49.033 Z-0.600 I-6.080 J6.622 K0.000 F200.000
G1 X44.467 Y41.010 Z-0.600 F200.000
G2 X41.757 Y41.129 Z-0.600 I-0.991 J8.388 K0.000 F200.000
G1 X52.371 Y51.743 Z-0.600 F200.000
G3 X51.671 Y53.871 Z-0.600 I-8.077 J-1.482 K0.000 F200.000
G1 X39.629 Y41.829 Z-0.600 F200.000
G2 X37.882 Y42.911 Z-0.600 I3.497 J7.601 K0.000 F200.000
G1 X50.589 Y55.618 Z-0.600 F200.000
G3 X49.180 Y57.037 Z-0.600 I-6.506 J-5.053 K0.000 F200.000
G1 X36.463 Y44.320 Z-0.600 F200.000
G2 X35.367 Y46.052 Z-0.600 I6.288 J5.193 K0.000 F200.000
G1 X47.448 Y58.133 Z-0.600 F200.000
G3 X45.338 Y58.852 Z-0.600 I-3.654 J-7.273 K0.000 F200.000
G1 X34.648 Y48.162 Z-0.600 F200.000
G2 X34.494 Y50.836 Z-0.600 I8.385 J1.826 K0.000 F200.000
G1 X42.664 Y59.006 Z-0.600 F200.000
G3 X38.037 Y57.207 Z-0.600 I0.802 J-8.914 K0.000 F200.000
G3 X36.293 Y55.463 Z-0.600 I5.144 J-6.888 K0.000 F200.000
G1 X38.037 Y57.207 Z-0.600 F200.000
G1 X37.914 Y57.085 Z-0.700 F200.000
G1 X38.037 Y57.207 Z-0.800 F200.000
G1 X36.293 Y55.463 Z-0.800 F200.000
G2 X38.037 Y57.207 Z-0.800 I6.888 J-5.144 K0.000 F200.000
G2 X42.664 Y59.006 Z-0.800 I5.429 J-7.116 K0.000 F200.000
G1 X34.494 Y50.836 Z-0.800 F200.000
G3 X34.648 Y48.162 Z-0.800 I8.540 J-0.848 K0.000 F200.000
G1 X45.338 Y58.852 Z-0.800 F200.000
G2 X47.448 Y58.133 Z-0.800 I-1.545 J-7.991 K0.000 F200.000
G1 X35.367 Y46.052 Z-0.800 F200.000
G3 X36.463 Y44.320 Z-0.800 I7.384 J3.460 K0.000 F200.000
G1 X49.180 Y57.037 Z-0.800 F200.000
G2 X50.589 Y55.618 Z-0.800 I-5.096 J-6.472 K0.000 F200.000
G1 X37.882 Y42.911 Z-0.800 F200.000
G3 X39.629 Y41.829 Z-0.800 I5.244 J6.520 K0.000 F200.000
G1 X51.671 Y53.871 Z-0.800 F200.000
G2 X52.371 Y51.743 Z-0.800 I-7.376 J-3.609 K0.000 F200.000
G1 X41.757 Y41.129 Z-0.800 F200.000
G3 X44.467 Y41.010 Z-0.800 I1.719 J8.270 K0.000 F200.000
G1 X52.490 Y49.033 Z-0.800 F200.000
G2 X49.628 Y43.343 Z-0.800 I-8.941 J0.932 K0.000 F200.000
G1 X49.755 Y43.461 Z-0.900 F200.000
G1 X49.628 Y43.343 Z-1.000 F200.000
G3 X52.490 Y49.033 Z-1.000 I-6.080 J6.622 K0.000 F200.000
G1 X44.467 Y41.010 Z-1.000 F200.000
G2 X41.757 Y41.129 Z-1.000 I-0.991 J8.388 K0.000 F200.000
G1 X52.371 Y51.743 Z-1.000 F200.000
G3 X51.671 Y53.871 Z-1.000 I-8.077 J-1.482 K0.000 F200.000
G1 X39.629 Y41.829 Z-1.000 F200.000
G2 X37.882 Y42.911 Z-1.000 I3.497 J7.601 K0.000 F200.000
G1 X50.589 Y55.618 Z-1.000 F200.000
G3 X49.180 Y57.037 Z-1.000 I-6.506 J-5.053 K0.000 F200.000
G1 X36.463 Y44.320 Z-1.000 F200.000
G2 X35.367 Y46.052 Z-1.000 I6.288 J5.193 K0.000 F200.000
G1 X47.448 Y58.133 Z-1.000 F200.000
G3 X45.338 Y58.852 Z-1.000 I-3.654 J-7.273 K0.000 F200.000
G1 X34.648 Y48.162 Z-1.000 F200.000
G2 X34.494 Y50.836 Z-1.000 I8.385 J1.826 K0.000 F200.000
G1 X42.664 Y59.006 Z-1.000 F200.000
G3 X38.037 Y57.207 Z-1.000 I0.802 J-8.914 K0.000 F200.000
G3 X36.293 Y55.463 Z-1.000 I5.144 J-6.888 K0.000 F200.000
G1 X38.037 Y57.207 Z-1.000 F200.000
G1 X37.914 Y57.085 Z-1.100 F200.000
G1 X38.037 Y57.207 Z-1.200 F200.000
G1 X36.293 Y55.463 Z-1.200 F200.000
G2 X38.037 Y57.207 Z-1.200 I6.888 J-5.144 K0.000 F200.000
G2 X42.664 Y59.006 Z-1.200 I5.429 J-7.116 K0.000 F200.000
G1 X34.494 Y50.836 Z-1.200 F200.000
G3 X34.648 Y48.162 Z-1.200 I8.540 J-0.848 K0.000 F200.000
G1 X45.338 Y58.852 Z-1.200 F200.000
G2 X47.448 Y58.133 Z-1.200 I-1.545 J-7.991 K0.000 F200.000
G1 X35.367 Y46.052 Z-1.200 F200.000
G3 X36.463 Y44.320 Z-1.200 I7.384 J3.460 K0.000 F200.000
G1 X49.180 Y57.037 Z-1.200 F200.000
G2 X50.589 Y55.618 Z-1.200 I-5.096 J-6.472 K0.000 F200.000
G1 X37.882 Y42.911 Z-1.200 F200.000
G3 X39.629 Y41.829 Z-1.200 I5.244 J6.520 K0.000 F200.000
G1 X51.671 Y53.871 Z-1.200 F200.000
G2 X52.371 Y51.743 Z-1.200 I-7.376 J-3.609 K0.000 F200.000
G1 X41.757 Y41.129 Z-1.200 F200.000
G3 X44.467 Y41.010 Z-1.200 I1.719 J8.270 K0.000 F200.000
G1 X52.490 Y49.033 Z-1.200 F200.000
G2 X49.628 Y43.343 Z-1.200 I-8.941 J0.932 K0.000 F200.000
G1 X49.755 Y43.461 Z-1.300 F200.000
G1 X49.628 Y43.343 Z-1.400 F200.000
G3 X52.490 Y49.033 Z-1.400 I-6.080 J6.622 K0.000 F200.000
G1 X44.467 Y41.010 Z-1.400 F200.000
G2 X41.757 Y41.129 Z-1.400 I-0.991 J8.388 K0.000 F200.000
G1 X52.371 Y51.743 Z-1.400 F200.000
G3 X51.671 Y53.871 Z-1.400 I-8.077 J-1.482 K0.000 F200.000
G1 X39.629 Y41.829 Z-1.400 F200.000
G2 X37.882 Y42.911 Z-1.400 I3.497 J7.601 K0.000 F200.000
G1 X50.589 Y55.618 Z-1.400 F200.000
G3 X49.180 Y57.037 Z-1.400 I-6.506 J-5.053 K0.000 F200.000
G1 X36.463 Y44.320 Z-1.400 F200.000
G2 X35.367 Y46.052 Z-1.400 I6.288 J5.193 K0.000 F200.000
G1 X47.448 Y58.133 Z-1.400 F200.000
G3 X45.338 Y58.852 Z-1.400 I-3.654 J-7.273 K0.000 F200.000
G1 X34.648 Y48.162 Z-1.400 F200.000
G2 X34.494 Y50.836 Z-1.400 I8.385 J1.826 K0.000 F200.000
G1 X42.664 Y59.006 Z-1.400 F200.000
G3 X38.037 Y57.207 Z-1.400 I0.802 J-8.914 K0.000 F200.000
G3 X36.293 Y55.463 Z-1.400 I5.144 J-6.888 K0.000 F200.000
G1 X38.037 Y57.207 Z-1.400 F200.000
G1 X37.914 Y57.085 Z-1.500 F200.000
G1 X38.037 Y57.207 Z-1.600 F200.000
G1 X36.293 Y55.463 Z-1.600 F200.000
G2 X38.037 Y57.207 Z-1.600 I6.888 J-5.144 K0.000 F200.000
G2 X42.664 Y59.006 Z-1.600 I5.429 J-7.116 K0.000 F200.000
G1 X34.494 Y50.836 Z-1.600 F200.000
G3 X34.648 Y48.162 Z-1.600 I8.540 J-0.848 K0.000 F200.000
G1 X45.338 Y58.852 Z-1.600 F200.000
G2 X47.448 Y58.133 Z-1.600 I-1.545 J-7.991 K0.000 F200.000
G1 X35.367 Y46.052 Z-1.600 F200.000
G3 X36.463 Y44.320 Z-1.600 I7.384 J3.460 K0.000 F200.000
G1 X49.180 Y57.037 Z-1.600 F200.000
G2 X50.589 Y55.618 Z-1.600 I-5.096 J-6.472 K0.000 F200.000
G1 X37.882 Y42.911 Z-1.600 F200.000
G3 X39.629 Y41.829 Z-1.600 I5.244 J6.520 K0.000 F200.000
G1 X51.671 Y53.871 Z-1.600 F200.000
G2 X52.371 Y51.743 Z-1.600 I-7.376 J-3.609 K0.000 F200.000
G1 X41.757 Y41.129 Z-1.600 F200.000
G3 X44.467 Y41.010 Z-1.600 I1.719 J8.270 K0.000 F200.000
G1 X52.490 Y49.033 Z-1.600 F200.000
G2 X49.628 Y43.343 Z-1.600 I-8.941 J0.932 K0.000 F200.000
G1 X49.755 Y43.461 Z-1.700 F200.000
G1 X49.628 Y43.343 Z-1.800 F200.000
G3 X52.490 Y49.033 Z-1.800 I-6.080 J6.622 K0.000 F200.000
G1 X44.467 Y41.010 Z-1.800 F200.000
G2 X41.757 Y41.129 Z-1.800 I-0.991 J8.388 K0.000 F200.000
G1 X52.371 Y51.743 Z-1.800 F200.000
G3 X51.671 Y53.871 Z-1.800 I-8.077 J-1.482 K0.000 F200.000
G1 X39.629 Y41.829 Z-1.800 F200.000
G2 X37.882 Y42.911 Z-1.800 I3.497 J7.601 K0.000 F200.000
G1 X50.589 Y55.618 Z-1.800 F200.000
G3 X49.180 Y57.037 Z-1.800 I-6.506 J-5.053 K0.000 F200.000
G1 X36.463 Y44.320 Z-1.800 F200.000
G2 X35.367 Y46.052 Z-1.800 I6.288 J5.193 K0.000 F200.000
G1 X47.448 Y58.133 Z-1.800 F200.000
G3 X45.338 Y58.852 Z-1.800 I-3.654 J-7.273 K0.000 F200.000
G1 X34.648 Y48.162 Z-1.800 F200.000
G2 X34.494 Y50.836 Z-1.800 I8.385 J1.826 K0.000 F200.000
G1 X42.664 Y59.006 Z-1.800 F200.000
G3 X38.037 Y57.207 Z-1.800 I0.802 J-8.914 K0.000 F200.000
G3 X36.293 Y55.463 Z-1.800 I5.144 J-6.888 K0.000 F200.000
G1 X38.037 Y57.207 Z-1.800 F200.000
G1 X37.914 Y57.085 Z-1.900 F200.000
G1 X38.037 Y57.207 Z-2.000 F200.000
G1 X36.293 Y55.463 Z-2.000 F200.000
G2 X38.037 Y57.207 Z-2.000 I6.888 J-5.144 K0.000 F200.000
G2 X42.664 Y59.006 Z-2.000 I5.429 J-7.116 K0.000 F200.000
G1 X34.494 Y50.836 Z-2.000 F200.000
G3 X34.648 Y48.162 Z-2.000 I8.540 J-0.848 K0.000 F200.000
G1 X45.338 Y58.852 Z-2.000 F200.000
G2 X47.448 Y58.133 Z-2.000 I-1.545 J-7.991 K0.000 F200.000
G1 X35.367 Y46.052 Z-2.000 F200.000
G3 X36.463 Y44.320 Z-2.000 I7.384 J3.460 K0.000 F200.000
G1 X49.180 Y57.037 Z-2.000 F200.000
G2 X50.589 Y55.618 Z-2.000 I-5.096 J-6.472 K0.000 F200.000
G1 X37.882 Y42.911 Z-2.000 F200.000
G3 X39.629 Y41.829 Z-2.000 I5.244 J6.520 K0.000 F200.000
G1 X51.671 Y53.871 Z-2.000 F200.000
G2 X52.371 Y51.743 Z-2.000 I-7.376 J-3.609 K0.000 F200.000
G1 X41.757 Y41.129 Z-2.000 F200.000
G3 X44.467 Y41.010 Z-2.000 I1.719 J8.270 K0.000 F200.000
G1 X52.490 Y49.033 Z-2.000 F200.000
G2 X49.628 Y43.343 Z-2.000 I-8.941 J0.932 K0.000 F200.000
G1 X49.755 Y43.461 Z-2.100 F200.000
G1 X49.628 Y43.343 Z-2.200 F200.000
G3 X52.490 Y49.033 Z-2.200 I-6.080 J6.622 K0.000 F200.000
G1 X44.467 Y41.010 Z-2.200 F200.000
G2 X41.757 Y41.129 Z-2.200 I-0.991 J8.388 K0.000 F200.000
G1 X52.371 Y51.743 Z-2.200 F200.000
G3 X51.671 Y53.871 Z-2.200 I-8.077 J-1.482 K0.000 F200.000
G1 X39.629 Y41.829 Z-2.200 F200.000
G2 X37.882 Y42.911 Z-2.200 I3.497 J7.601 K0.000 F200.000
G1 X50.589 Y55.618 Z-2.200 F200.000
G3 X49.180 Y57.037 Z-2.200 I-6.506 J-5.053 K0.000 F200.000
G1 X36.463 Y44.320 Z-2.200 F200.000
G2 X35.367 Y46.052 Z-2.200 I6.288 J5.193 K0.000 F200.000
G1 X47.448 Y58.133 Z-2.200 F200.000
G3 X45.338 Y58.852 Z-2.200 I-3.654 J-7.273 K0.000 F200.000
G1 X34.648 Y48.162 Z-2.200 F200.000
G2 X34.494 Y50.836 Z-2.200 I8.385 J1.826 K0.000 F200.000
G1 X42.664 Y59.006 Z-2.200 F200.000
G3 X38.037 Y57.207 Z-2.200 I0.802 J-8.914 K0.000 F200.000
G3 X36.293 Y55.463 Z-2.200 I5.144 J-6.888 K0.000 F200.000
G1 X38.037 Y57.207 Z-2.200 F200.000
G1 X37.914 Y57.085 Z-2.300 F200.000
G1 X38.037 Y57.207 Z-2.400 F200.000
G1 X36.293 Y55.463 Z-2.400 F200.000
G2 X38.037 Y57.207 Z-2.400 I6.888 J-5.144 K0.000 F200.000
G2 X42.664 Y59.006 Z-2.400 I5.429 J-7.116 K0.000 F200.000
G1 X34.494 Y50.836 Z-2.400 F200.000
G3 X34.648 Y48.162 Z-2.400 I8.540 J-0.848 K0.000 F200.000
G1 X45.338 Y58.852 Z-2.400 F200.000
G2 X47.448 Y58.133 Z-2.400 I-1.545 J-7.991 K0.000 F200.000
G1 X35.367 Y46.052 Z-2.400 F200.000
G3 X36.463 Y44.320 Z-2.400 I7.384 J3.460 K0.000 F200.000
G1 X49.180 Y57.037 Z-2.400 F200.000
G2 X50.589 Y55.618 Z-2.400 I-5.096 J-6.472 K0.000 F200.000
G1 X37.882 Y42.911 Z-2.400 F200.000
G3 X39.629 Y41.829 Z-2.400 I5.244 J6.520 K0.000 F200.000
G1 X51.671 Y53.871 Z-2.400 F200.000
G2 X52.371 Y51.743 Z-2.400 I-7.376 J-3.609 K0.000 F200.000
G1 X41.757 Y41.129 Z-2.400 F200.000
G3 X44.467 Y41.010 Z-2.400 I1.719 J8.270 K0.000 F200.000
G1 X52.490 Y49.033 Z-2.400 F200.000
G2 X49.628 Y43.343 Z-2.400 I-8.941 J0.932 K0.000 F200.000
G1 X49.755 Y43.461 Z-2.500 F200.000
G1 X49.628 Y43.343 Z-2.600 F200.000
G3 X52.490 Y49.033 Z-2.600 I-6.080 J6.622 K0.000 F200.000
G1 X44.467 Y41.010 Z-2.600 F200.000
G2 X41.757 Y41.129 Z-2.600 I-0.991 J8.388 K0.000 F200.000
G1 X52.371 Y51.743 Z-2.600 F200.000
G3 X51.671 Y53.871 Z-2.600 I-8.077 J-1.482 K0.000 F200.000
G1 X39.629 Y41.829 Z-2.600 F200.000
G2 X37.882 Y42.911 Z-2.600 I3.497 J7.601 K0.000 F200.000
G1 X50.589 Y55.618 Z-2.600 F200.000
G3 X49.180 Y57.037 Z-2.600 I-6.506 J-5.053 K0.000 F200.000
G1 X36.463 Y44.320 Z-2.600 F200.000
G2 X35.367 Y46.052 Z-2.600 I6.288 J5.193 K0.000 F200.000
G1 X47.448 Y58.133 Z-2.600 F200.000
G3 X45.338 Y58.852 Z-2.600 I-3.654 J-7.273 K0.000 F200.000
G1 X34.648 Y48.162 Z-2.600 F200.000
G2 X34.494 Y50.836 Z-2.600 I8.385 J1.826 K0.000 F200.000
G1 X42.664 Y59.006 Z-2.600 F200.000
G3 X38.037 Y57.207 Z-2.600 I0.802 J-8.914 K0.000 F200.000
G3 X36.293 Y55.463 Z-2.600 I5.144 J-6.888 K0.000 F200.000
G1 X38.037 Y57.207 Z-2.600 F200.000
G1 X37.914 Y57.085 Z-2.700 F200.000
G1 X38.037 Y57.207 Z-2.800 F200.000
G1 X36.293 Y55.463 Z-2.800 F200.000
G2 X38.037 Y57.207 Z-2.800 I6.888 J-5.144 K0.000 F200.000
G2 X42.664 Y59.006 Z-2.800 I5.429 J-7.116 K0.000 F200.000
G1 X34.494 Y50.836 Z-2.800 F200.000
G3 X34.648 Y48.162 Z-2.800 I8.540 J-0.848 K0.000 F200.000
G1 X45.338 Y58.852 Z-2.800 F200.000
G2 X47.448 Y58.133 Z-2.800 I-1.545 J-7.991 K0.000 F200.000
G1 X35.367 Y46.052 Z-2.800 F200.000
G3 X36.463 Y44.320 Z-2.800 I7.384 J3.460 K0.000 F200.000
G1 X49.180 Y57.037 Z-2.800 F200.000
G2 X50.589 Y55.618 Z-2.800 I-5.096 J-6.472 K0.000 F200.000
G1 X37.882 Y42.911 Z-2.800 F200.000
G3 X39.629 Y41.829 Z-2.800 I5.244 J6.520 K0.000 F200.000
G1 X51.671 Y53.871 Z-2.800 F200.000
G2 X52.371 Y51.743 Z-2.800 I-7.376 J-3.609 K0.000 F200.000
G1 X41.757 Y41.129 Z-2.800 F200.000
G3 X44.467 Y41.010 Z-2.800 I1.719 J8.270 K0.000 F200.000
G1 X52.490 Y49.033 Z-2.800 F200.000
G2 X49.628 Y43.343 Z-2.800 I-8.941 J0.932 K0.000 F200.000
G1 X49.755 Y43.461 Z-2.900 F200.000
G1 X49.628 Y43.343 Z-3.000 F200.000
G3 X52.490 Y49.033 Z-3.000 I-6.080 J6.622 K0.000 F200.000
G1 X44.467 Y41.010 Z-3.000 F200.000
G2 X41.757 Y41.129 Z-3.000 I-0.991 J8.388 K0.000 F200.000
G1 X52.371 Y51.743 Z-3.000 F200.000
G3 X51.671 Y53.871 Z-3.000 I-8.077 J-1.482 K0.000 F200.000
G1 X39.629 Y41.829 Z-3.000 F200.000
G2 X37.882 Y42.911 Z-3.000 I3.497 J7.601 K0.000 F200.000
G1 X50.589 Y55.618 Z-3.000 F200.000
G3 X49.180 Y57.037 Z-3.000 I-6.506 J-5.053 K0.000 F200.000
G1 X36.463 Y44.320 Z-3.000 F200.000
G2 X35.367 Y46.052 Z-3.000 I6.288 J5.193 K0.000 F200.000
G1 X47.448 Y58.133 Z-3.000 F200.000
G3 X45.338 Y58.852 Z-3.000 I-3.654 J-7.273 K0.000 F200.000
G1 X34.648 Y48.162 Z-3.000 F200.000
G2 X34.494 Y50.836 Z-3.000 I8.385 J1.826 K0.000 F200.000
G1 X42.664 Y59.006 Z-3.000 F200.000
G3 X38.037 Y57.207 Z-3.000 I0.802 J-8.914 K0.000 F200.000
G3 X36.293 Y55.463 Z-3.000 I5.144 J-6.888 K0.000 F200.000
G1 X38.037 Y57.207 Z-3.000 F200.000
G1 X37.914 Y57.085 Z-3.100 F200.000
G1 X38.037 Y57.207 Z-3.200 F200.000
G1 X36.293 Y55.463 Z-3.200 F200.000
G2 X38.037 Y57.207 Z-3.200 I6.888 J-5.144 K0.000 F200.000
G2 X42.664 Y59.006 Z-3.200 I5.429 J-7.116 K0.000 F200.000
G1 X34.494 Y50.836 Z-3.200 F200.000
G3 X34.648 Y48.162 Z-3.200 I8.540 J-0.848 K0.000 F200.000
G1 X45.338 Y58.852 Z-3.200 F200.000
G2 X47.448 Y58.133 Z-3.200 I-1.545 J-7.991 K0.000 F200.000
G1 X35.367 Y46.052 Z-3.200 F200.000
G3 X36.463 Y44.320 Z-3.200 I7.384 J3.460 K0.000 F200.000
G1 X49.180 Y57.037 Z-3.200 F200.000
G2 X50.589 Y55.618 Z-3.200 I-5.096 J-6.472 K0.000 F200.000
G1 X37.882 Y42.911 Z-3.200 F200.000
G3 X39.629 Y41.829 Z-3.200 I5.244 J6.520 K0.000 F200.000
G1 X51.671 Y53.871 Z-3.200 F200.000
G2 X52.371 Y51.743 Z-3.200 I-7.376 J-3.609 K0.000 F200.000
G1 X41.757 Y41.129 Z-3.200 F200.000
G3 X44.467 Y41.010 Z-3.200 I1.719 J8.270 K0.000 F200.000
G1 X52.490 Y49.033 Z-3.200 F200.000
G2 X49.628 Y43.343 Z-3.200 I-8.941 J0.932 K0.000 F200.000
G1 X49.755 Y43.461 Z-3.300 F200.000
G1 X49.628 Y43.343 Z-3.400 F200.000
G3 X52.490 Y49.033 Z-3.400 I-6.080 J6.622 K0.000 F200.000
G1 X44.467 Y41.010 Z-3.400 F200.000
G2 X41.757 Y41.129 Z-3.400 I-0.991 J8.388 K0.000 F200.000
G1 X52.371 Y51.743 Z-3.400 F200.000
G3 X51.671 Y53.871 Z-3.400 I-8.077 J-1.482 K0.000 F200.000
G1 X39.629 Y41.829 Z-3.400 F200.000
G2 X37.882 Y42.911 Z-3.400 I3.497 J7.601 K0.000 F200.000
G1 X50.589 Y55.618 Z-3.400 F200.000
G3 X49.180 Y57.037 Z-3.400 I-6.506 J-5.053 K0.000 F200.000
G1 X36.463 Y44.320 Z-3.400 F200.000
G2 X35.367 Y46.052 Z-3.400 I6.288 J5.193 K0.000 F200.000
G1 X47.448 Y58.133 Z-3.400 F200.000
G3 X45.338 Y58.852 Z-3.400 I-3.654 J-7.273 K0.000 F200.000
G1 X34.648 Y48.162 Z-3.400 F200.000
G2 X34.494 Y50.836 Z-3.400 I8.385 J1.826 K0.000 F200.000
G1 X42.664 Y59.006 Z-3.400 F200.000
G3 X38.037 Y57.207 Z-3.400 I0.802 J-8.914 K0.000 F200.000
G3 X36.293 Y55.463 Z-3.400 I5.144 J-6.888 K0.000 F200.000
G1 X38.037 Y57.207 Z-3.400 F200.000
G1 X37.914 Y57.085 Z-3.500 F200.000
G1 X38.037 Y57.207 Z-3.600 F200.000
G1 X36.293 Y55.463 Z-3.600 F200.000
G2 X38.037 Y57.207 Z-3.600 I6.888 J-5.144 K0.000 F200.000
G2 X42.664 Y59.006 Z-3.600 I5.429 J-7.116 K0.000 F200.000
G1 X34.494 Y50.836 Z-3.600 F200.000
G3 X34.648 Y48.162 Z-3.600 I8.540 J-0.848 K0.000 F200.000
G1 X45.338 Y58.852 Z-3.600 F200.000
G2 X47.448 Y58.133 Z-3.600 I-1.545 J-7.991 K0.000 F200.000
G1 X35.367 Y46.052 Z-3.600 F200.000
G3 X36.463 Y44.320 Z-3.600 I7.384 J3.460 K0.000 F200.000
G1 X49.180 Y57.037 Z-3.600 F200.000
G2 X50.589 Y55.618 Z-3.600 I-5.096 J-6.472 K0.000 F200.000
G1 X37.882 Y42.911 Z-3.600 F200.000
G3 X39.629 Y41.829 Z-3.600 I5.244 J6.520 K0.000 F200.000
G1 X51.671 Y53.871 Z-3.600 F200.000
G2 X52.371 Y51.743 Z-3.600 I-7.376 J-3.609 K0.000 F200.000
G1 X41.757 Y41.129 Z-3.600 F200.000
G3 X44.467 Y41.010 Z-3.600 I1.719 J8.270 K0.000 F200.000
G1 X52.490 Y49.033 Z-3.600 F200.000
G2 X49.628 Y43.343 Z-3.600 I-8.941 J0.932 K0.000 F200.000
G1 X49.755 Y43.461 Z-3.700 F200.000
G1 X49.628 Y43.343 Z-3.800 F200.000
G3 X52.490 Y49.033 Z-3.800 I-6.080 J6.622 K0.000 F200.000
G1 X44.467 Y41.010 Z-3.800 F200.000
G2 X41.757 Y41.129 Z-3.800 I-0.991 J8.388 K0.000 F200.000
G1 X52.371 Y51.743 Z-3.800 F200.000
G3 X51.671 Y53.871 Z-3.800 I-8.077 J-1.482 K0.000 F200.000
G1 X39.629 Y41.829 Z-3.800 F200.000
G2 X37.882 Y42.911 Z-3.800 I3.497 J7.601 K0.000 F200.000
G1 X50.589 Y55.618 Z-3.800 F200.000
G3 X49.180 Y57.037 Z-3.800 I-6.506 J-5.053 K0.000 F200.000
G1 X36.463 Y44.320 Z-3.800 F200.000
G2 X35.367 Y46.052 Z-3.800 I6.288 J5.193 K0.000 F200.000
G1 X47.448 Y58.133 Z-3.800 F200.000
G3 X45.338 Y58.852 Z-3.800 I-3.654 J-7.273 K0.000 F200.000
G1 X34.648 Y48.162 Z-3.800 F200.000
G2 X34.494 Y50.836 Z-3.800 I8.385 J1.826 K0.000 F200.000
G1 X42.664 Y59.006 Z-3.800 F200.000
G3 X38.037 Y57.207 Z-3.800 I0.802 J-8.914 K0.000 F200.000
G3 X36.293 Y55.463 Z-3.800 I5.144 J-6.888 K0.000 F200.000
G1 X38.037 Y57.207 Z-3.800 F200.000
G1 X37.914 Y57.085 Z-3.900 F200.000
G1 X38.037 Y57.207 Z-4.000 F200.000
G1 X36.293 Y55.463 Z-4.000 F200.000
G2 X38.037 Y57.207 Z-4.000 I6.888 J-5.144 K0.000 F200.000
G2 X42.664 Y59.006 Z-4.000 I5.429 J-7.116 K0.000 F200.000
G1 X34.494 Y50.836 Z-4.000 F200.000
G3 X34.648 Y48.162 Z-4.000 I8.540 J-0.848 K0.000 F200.000
G1 X45.338 Y58.852 Z-4.000 F200.000
G2 X47.448 Y58.133 Z-4.000 I-1.545 J-7.991 K0.000 F200.000
G1 X35.367 Y46.052 Z-4.000 F200.000
G3 X36.463 Y44.320 Z-4.000 I7.384 J3.460 K0.000 F200.000
G1 X49.180 Y57.037 Z-4.000 F200.000
G2 X50.589 Y55.618 Z-4.000 I-5.096 J-6.472 K0.000 F200.000
G1 X37.882 Y42.911 Z-4.000 F200.000
G3 X39.629 Y41.829 Z-4.000 I5.244 J6.520 K0.000 F200.000
G1 X51.671 Y53.871 Z-4.000 F200.000
G2 X52.371 Y51.743 Z-4.000 I-7.376 J-3.609 K0.000 F200.000
G1 X41.757 Y41.129 Z-4.000 F200.000
G3 X44.467 Y41.010 Z-4.000 I1.719 J8.270 K0.000 F200.000
G1 X52.490 Y49.033 Z-4.000 F200.000
G2 X49.628 Y43.343 Z-4.000 I-8.941 J0.932 K0.000 F200.000
G1 X49.692 Y43.402 Z-4.050 F200.000
G1 X49.628 Y43.343 Z-4.100 F200.000
G3 X52.490 Y49.033 Z-4.100 I-6.080 J6.622 K0.000 F200.000
G1 X44.467 Y41.010 Z-4.100 F200.000
G2 X41.757 Y41.129 Z-4.100 I-0.991 J8.388 K0.000 F200.000
G1 X52.371 Y51.743 Z-4.100 F200.000
G3 X51.671 Y53.871 Z-4.100 I-8.077 J-1.482 K0.000 F200.000
G1 X39.629 Y41.829 Z-4.100 F200.000
G2 X37.882 Y42.911 Z-4.100 I3.497 J7.601 K0.000 F200.000
G1 X50.589 Y55.618 Z-4.100 F200.000
G3 X49.180 Y57.037 Z-4.100 I-6.506 J-5.053 K0.000 F200.000
G1 X36.463 Y44.320 Z-4.100 F200.000
G2 X35.367 Y46.052 Z-4.100 I6.288 J5.193 K0.000 F200.000
G1 X47.448 Y58.133 Z-4.100 F200.000
G3 X45.338 Y58.852 Z-4.100 I-3.654 J-7.273 K0.000 F200.000
G1 X34.648 Y48.162 Z-4.100 F200.000
G2 X34.494 Y50.836 Z-4.100 I8.385 J1.826 K0.000 F200.000
G1 X42.664 Y59.006 Z-4.100 F200.000
G3 X38.037 Y57.207 Z-4.100 I0.802 J-8.914 K0.000 F200.000
G3 X36.293 Y55.463 Z-4.100 I5.144 J-6.888 K0.000 F200.000
G1 X38.037 Y57.207 Z-4.100 F200.000
G0 X38.037 Y57.207 Z5.000
G0 X129.537 Y29.637 Z5.000
G0 X129.537 Y29.637 Z3.000
G1 X127.793 Y27.893 Z1.576 F200.000
G1 X127.979 Y28.134 Z1.400 F200.000
G1 X127.793 Y27.893 Z1.224 F200.000
G1 X129.537 Y29.637 Z-0.200 F200.000
G1 X127.793 Y27.893 Z-0.200 F200.000
G2 X129.537 Y29.637 Z-0.200 I6.888 J-5.144 K0.000 F200.000
G2 X134.164 Y31.436 Z-0.200 I5.429 J-7.116 K0.000 F200.000
G1 X125.994 Y23.266 Z-0.200 F200.000
G3 X126.148 Y20.592 Z-0.200 I8.540 J-0.848 K0.000 F200.000
G1 X136.838 Y31.282 Z-0.200 F200.000
G2 X138.948 Y30.563 Z-0.200 I-1.545 J-7.991 K0.000 F200.000
G1 X126.867 Y18.482 Z-0.200 F200.000
G3 X127.963 Y16.750 Z-0.200 I7.384 J3.460 K0.000 F200.000
G1 X140.680 Y29.467 Z-0.200 F200.000
G2 X142.089 Y28.048 Z-0.200 I-5.096 J-6.472 K0.000 F200.000
G1 X129.382 Y15.341 Z-0.200 F200.000
G3 X131.129 Y14.259 Z-0.200 I5.244 J6.520 K0.000 F200.000
G1 X143.171 Y26.301 Z-0.200 F200.000
G2 X143.871 Y24.173 Z-0.200 I-7.376 J-3.609 K0.000 F200.000
G1 X133.257 Y13.559 Z-0.200 F200.000
G3 X135.967 Y13.440 Z-0.200 I1.719 J8.270 K0.000 F200.000
G1 X143.990 Y21.463 Z-0.200 F200.000
G2 X141.128 Y15.773 Z-0.200 I-8.941 J0.932 K0.000 F200.000
G1 X141.255 Y15.891 Z-0.300 F200.000
G1 X141.128 Y15.773 Z-0.400 F200.000
G3 X143.990 Y21.463 Z-0.400 I-6.080 J6.622 K0.000 F200.000
G1 X135.967 Y13.440 Z-0.400 F200.000
G2 X133.257 Y13.559 Z-0.400 I-0.991 J8.388 K0.000 F200.000
G1 X143.871 Y24.173 Z-0.400 F200.000
G3 X143.171 Y26.301 Z-0.400 I-8.077 J-1.482 K0.000 F200.000
G1 X131.129 Y14.259 Z-0.400 F200.000
G2 X129.382 Y15.341 Z-0.400 I3.497 J7.601 K0.000 F200.000
G1 X142.089 Y28.048 Z-0.400 F200.000
G3 X140.680 Y29.467 Z-0.400 I-6.506 J-5.053 K0.000 F200.000
G1 X127.963 Y16.750 Z-0.400 F200.000
G2 X126.867 Y18.482 Z-0.400 I6.288 J5.193 K0.000 F200.000
G1 X138.948 Y30.563 Z-0.400 F200.000
G3 X136.838 Y31.282 Z-0.400 I-3.654 J-7.273 K0.000 F200.000
G1 X126.148 Y20.592 Z-0.400 F200.000
G2 X125.994 Y23.266 Z-0.400 I8.385 J1.826 K0.000 F200.000
G1 X134.164 Y31.436 Z-0.400 F200.000
G3 X129.537 Y29.637 Z-0.400 I0.802 J-8.914 K0.000 F200.000
G3 X127.793 Y27.893 Z-0.400 I5.144 J-6.888 K0.000 F200.000
G1 X129.537 Y29.637 Z-0.400 F200.000
G1 X129.414 Y29.515 Z-0.500 F200.000
G1 X129.537 Y29.637 Z-0.600 F200.000
G1 X127.793 Y27.893 Z-0.600 F200.000
G2 X129.537 Y29.637 Z-0.600 I6.888 J-5.144 K0.000 F200.000
G2 X134.164 Y31.436 Z-0.600 I5.429 J-7.116 K0.000 F200.000
G1 X125.994 Y23.266 Z-0.600 F200.000
G3 X126.148 Y20.592 Z-0.600 I8.540 J-0.848 K0.000 F200.000
G1 X136.838 Y31.282 Z-0.600 F200.000
G2 X138.948 Y30.563 Z-0.600 I-1.545 J-7.991 K0.000 F200.000
G1 X126.867 Y18.482 Z-0.600 F200.000
G3 X127.963 Y16.750 Z-0.600 I7.384 J3.460 K0.000 F200.000
G1 X140.680 Y29.467 Z-0.600 F200.000
G2 X142.089 Y28.048 Z-0.600 I-5.096 J-6.472 K0.000 F200.000
G1 X129.382 Y15.341 Z-0.600 F200.000
G3 X131.129 Y14.259 Z-0.600 I5.244 J6.520 K0.000 F200.000
G1 X143.171 Y26.301 Z-0.600 F200.000
G2 X143.871 Y24.173 Z-0.600 I-7.376 J-3.609 K0.000 F200.000
G1 X133.257 Y13.559 Z-0.600 F200.000
G3 X135.967 Y13.440 Z-0.600 I1.719 J8.270 K0.000 F200.000
G1 X143.990 Y21.463 Z-0.600 F200.000
G2 X141.128 Y15.773 Z-0.600 I-8.941 J0.932 K0.000 F200.000
G1 X141.255 Y15.891 Z-0.700 F200.000
G1 X141.128 Y15.773 Z-0.800 F200.000
G3 X143.990 Y21.463 Z-0.800 I-6.080 J6.622 K0.000 F200.000
G1 X135.967 Y13.440 Z-0.800 F200.000
G2 X133.257 Y13.559 Z-0.800 I-0.991 J8.388 K0.000 F200.000
G1 X143.871 Y24.173 Z-0.800 F200.000
G3 X143.171 Y26.301 Z-0.800 I-8.077 J-1.482 K0.000 F200.000
G1 X131.129 Y14.259 Z-0.800 F200.000
G2 X129.382 Y15.341 Z-0.800 I3.497 J7.601 K0.000 F200.000
G1 X142.089 Y28.048 Z-0.800 F200.000
G3 X140.680 Y29.467 Z-0.800 I-6.506 J-5.053 K0.000 F200.000
G1 X127.963 Y16.750 Z-0.800 F200.000
G2 X126.867 Y18.482 Z-0.800 I6.288 J5.193 K0.000 F200.000
G1 X138.948 Y30.563 Z-0.800 F200.000
G3 X136.838 Y31.282 Z-0.800 I-3.654 J-7.273 K0.000 F200.000
G1 X126.148 Y20.592 Z-0.800 F200.000
G2 X125.994 Y23.266 Z-0.800 I8.385 J1.826 K0.000 F200.000
G1 X134.164 Y31.436 Z-0.800 F200.000
G3 X129.537 Y29.637 Z-0.800 I0.802 J-8.914 K0.000 F200.000
G3 X127.793 Y27.893 Z-0.800 I5.144 J-6.888 K0.000 F200.000
G1 X129.537 Y29.637 Z-0.800 F200.000
G1 X129.414 Y29.515 Z-0.900 F200.000
G1 X129.537 Y29.637 Z-1.000 F200.000
G1 X127.793 Y27.893 Z-1.000 F200.000
G2 X129.537 Y29.637 Z-1.000 I6.888 J-5.144 K0.000 F200.000
G2 X134.164 Y31.436 Z-1.000 I5.429 J-7.116 K0.000 F200.000
G1 X125.994 Y23.266 Z-1.000 F200.000
G3 X126.148 Y20.592 Z-1.000 I8.540 J-0.848 K0.000 F200.000
G1 X136.838 Y31.282 Z-1.000 F200.000
G2 X138.948 Y30.563 Z-1.000 I-1.545 J-7.991 K0.000 F200.000
G1 X126.867 Y18.482 Z-1.000 F200.000
G3 X127.963 Y16.750 Z-1.000 I7.384 J3.460 K0.000 F200.000
G1 X140.680 Y29.467 Z-1.000 F200.000
G2 X142.089 Y28.048 Z-1.000 I-5.096 J-6.472 K0.000 F200.000
G1 X129.382 Y15.341 Z-1.000 F200.000
G3 X131.129 Y14.259 Z-1.000 I5.244 J6.520 K0.000 F200.000
G1 X143.171 Y26.301 Z-1.000 F200.000
G2 X143.871 Y24.173 Z-1.000 I-7.376 J-3.609 K0.000 F200.000
G1 X133.257 Y13.559 Z-1.000 F200.000
G3 X135.967 Y13.440 Z-1.000 I1.719 J8.270 K0.000 F200.000
G1 X143.990 Y21.463 Z-1.000 F200.000
G2 X141.128 Y15.773 Z-1.000 I-8.941 J0.932 K0.000 F200.000
G1 X141.255 Y15.891 Z-1.100 F200.000
G1 X141.128 Y15.773 Z-1.200 F200.000
G3 X143.990 Y21.463 Z-1.200 I-6.080 J6.622 K0.000 F200.000
G1 X135.967 Y13.440 Z-1.200 F200.000
G2 X133.257 Y13.559 Z-1.200 I-0.991 J8.388 K0.000 F200.000
G1 X143.871 Y24.173 Z-1.200 F200.000
G3 X143.171 Y26.301 Z-1.200 I-8.077 J-1.482 K0.000 F200.000
G1 X131.129 Y14.259 Z-1.200 F200.000
G2 X129.382 Y15.341 Z-1.200 I3.497 J7.601 K0.000 F200.000
G1 X142.089 Y28.048 Z-1.200 F200.000
G3 X140.680 Y29.467 Z-1.200 I-6.506 J-5.053 K0.000 F200.000
G1 X127.963 Y16.750 Z-1.200 F200.000
G2 X126.867 Y18.482 Z-1.200 I6.288 J5.193 K0.000 F200.000
G1 X138.948 Y30.563 Z-1.200 F200.000
G3 X136.838 Y31.282 Z-1.200 I-3.654 J-7.273 K0.000 F200.000
G1 X126.148 Y20.592 Z-1.200 F200.000
G2 X125.994 Y23.266 Z-1.200 I8.385 J1.826 K0.000 F200.000
G1 X134.164 Y31.436 Z-1.200 F200.000
G3 X129.537 Y29.637 Z-1.200 I0.802 J-8.914 K0.000 F200.000
G3 X127.793 Y27.893 Z-1.200 I5.144 J-6.888 K0.000 F200.000
G1 X129.537 Y29.637 Z-1.200 F200.000
G1 X129.414 Y29.515 Z-1.300 F200.000
G1 X129.537 Y29.637 Z-1.400 F200.000
G1 X127.793 Y27.893 Z-1.400 F200.000
G2 X129.537 Y29.637 Z-1.400 I6.888 J-5.144 K0.000 F200.000
G2 X134.164 Y31.436 Z-1.400 I5.429 J-7.116 K0.000 F200.000
G1 X125.994 Y23.266 Z-1.400 F200.000
G3 X126.148 Y20.592 Z-1.400 I8.540 J-0.848 K0.000 F200.000
G1 X136.838 Y31.282 Z-1.400 F200.000
G2 X138.948 Y30.563 Z-1.400 I-1.545 J-7.991 K0.000 F200.000
G1 X126.867 Y18.482 Z-1.400 F200.000
G3 X127.963 Y16.750 Z-1.400 I7.384 J3.460 K0.000 F200.000
G1 X140.680 Y29.467 Z-1.400 F200.000
G2 X142.089 Y28.048 Z-1.400 I-5.096 J-6.472 K0.000 F200.000
G1 X129.382 Y15.341 Z-1.400 F200.000
G3 X131.129 Y14.259 Z-1.400 I5.244 J6.520 K0.000 F200.000
G1 X143.171 Y26.301 Z-1.400 F200.000
G2 X143.871 Y24.173 Z-1.400 I-7.376 J-3.609 K0.000 F200.000
G1 X133.257 Y13.559 Z-1.400 F200.000
G3 X135.967 Y13.440 Z-1.400 I1.719 J8.270 K0.000 F200.000
G1 X143.990 Y21.463 Z-1.400 F200.000
G2 X141.128 Y15.773 Z-1.400 I-8.941 J0.932 K0.000 F200.000
G1 X141.255 Y15.891 Z-1.500 F200.000
G1 X141.128 Y15.773 Z-1.600 F200.000
G3 X143.990 Y21.463 Z-1.600 I-6.080 J6.622 K0.000 F200.000
G1 X135.967 Y13.440 Z-1.600 F200.000
G2 X133.257 Y13.559 Z-1.600 I-0.991 J8.388 K0.000 F200.000
G1 X143.871 Y24.173 Z-1.600 F200.000
G3 X143.171 Y26.301 Z-1.600 I-8.077 J-1.482 K0.000 F200.000
G1 X131.129 Y14.259 Z-1.600 F200.000
G2 X129.382 Y15.341 Z-1.600 I3.497 J7.601 K0.000 F200.000
G1 X142.089 Y28.048 Z-1.600 F200.000
G3 X140.680 Y29.467 Z-1.600 I-6.506 J-5.053 K0.000 F200.000
G1 X127.963 Y16.750 Z-1.600 F200.000
G2 X126.867 Y18.482 Z-1.600 I6.288 J5.193 K0.000 F200.000
G1 X138.948 Y30.563 Z-1.600 F200.000
G3 X136.838 Y31.282 Z-1.600 I-3.654 J-7.273 K0.000 F200.000
G1 X126.148 Y20.592 Z-1.600 F200.000
G2 X125.994 Y23.266 Z-1.600 I8.385 J1.826 K0.000 F200.000
G1 X134.164 Y31.436 Z-1.600 F200.000
G3 X129.537 Y29.637 Z-1.600 I0.802 J-8.914 K0.000 F200.000
G3 X127.793 Y27.893 Z-1.600 I5.144 J-6.888 K0.000 F200.000
G1 X129.537 Y29.637 Z-1.600 F200.000
G1 X129.414 Y29.515 Z-1.700 F200.000
G1 X129.537 Y29.637 Z-1.800 F200.000
G1 X127.793 Y27.893 Z-1.800 F200.000
G2 X129.537 Y29.637 Z-1.800 I6.888 J-5.144 K0.000 F200.000
G2 X134.164 Y31.436 Z-1.800 I5.429 J-7.116 K0.000 F200.000
G1 X125.994 Y23.266 Z-1.800 F200.000
G3 X126.148 Y20.592 Z-1.800 I8.540 J-0.848 K0.000 F200.000
G1 X136.838 Y31.282 Z-1.800 F200.000
G2 X138.948 Y30.563 Z-1.800 I-1.545 J-7.991 K0.000 F200.000
G1 X126.867 Y18.482 Z-1.800 F200.000
G3 X127.963 Y16.750 Z-1.800 I7.384 J3.460 K0.000 F200.000
G1 X140.680 Y29.467 Z-1.800 F200.000
G2 X142.089 Y28.048 Z-1.800 I-5.096 J-6.472 K0.000 F200.000
G1 X129.382 Y15.341 Z-1.800 F200.000
G3 X131.129 Y14.259 Z-1.800 I5.244 J6.520 K0.000 F200.000
G1 X143.171 Y26.301 Z-1.800 F200.000
G2 X143.871 Y24.173 Z-1.800 I-7.376 J-3.609 K0.000 F200.000
G1 X133.257 Y13.559 Z-1.800 F200.000
G3 X135.967 Y13.440 Z-1.800 I1.719 J8.270 K0.000 F200.000
G1 X143.990 Y21.463 Z-1.800 F200.000
G2 X141.128 Y15.773 Z-1.800 I-8.941 J0.932 K0.000 F200.000
G1 X141.255 Y15.891 Z-1.900 F200.000
G1 X141.128 Y15.773 Z-2.000 F200.000
G3 X143.990 Y21.463 Z-2.000 I-6.080 J6.622 K0.000 F200.000
G1 X135.967 Y13.440 Z-2.000 F200.000
G2 X133.257 Y13.559 Z-2.000 I-0.991 J8.388 K0.000 F200.000
G1 X143.871 Y24.173 Z-2.000 F200.000
G3 X143.171 Y26.301 Z-2.000 I-8.077 J-1.482 K0.000 F200.000
G1 X131.129 Y14.259 Z-2.000 F200.000
G2 X129.382 Y15.341 Z-2.000 I3.497 J7.601 K0.000 F200.000
G1 X142.089 Y28.048 Z-2.000 F200.000
G3 X140.680 Y29.467 Z-2.000 I-6.506 J-5.053 K0.000 F200.000
G1 X127.963 Y16.750 Z-2.000 F200.000
G2 X126.867 Y18.482 Z-2.000 I6.288 J5.193 K0.000 F200.000
G1 X138.948 Y30.563 Z-2.000 F200.000
G3 X136.838 Y31.282 Z-2.000 I-3.654 J-7.273 K0.000 F200.000
G1 X126.148 Y20.592 Z-2.000 F200.000
G2 X125.994 Y23.266 Z-2.000 I8.385 J1.826 K0.000 F200.000
G1 X134.164 Y31.436 Z-2.000 F200.000
G3 X129.537 Y29.637 Z-2.000 I0.802 J-8.914 K0.000 F200.000
G3 X127.793 Y27.893 Z-2.000 I5.144 J-6.888 K0.000 F200.000
G1 X129.537 Y29.637 Z-2.000 F200.000
G1 X129.414 Y29.515 Z-2.100 F200.000
G1 X129.537 Y29.637 Z-2.200 F200.000
G1 X127.793 Y27.893 Z-2.200 F200.000
G2 X129.537 Y29.637 Z-2.200 I6.888 J-5.144 K0.000 F200.000
G2 X134.164 Y31.436 Z-2.200 I5.429 J-7.116 K0.000 F200.000
G1 X125.994 Y23.266 Z-2.200 F200.000
G3 X126.148 Y20.592 Z-2.200 I8.540 J-0.848 K0.000 F200.000
G1 X136.838 Y31.282 Z-2.200 F200.000
G2 X138.948 Y30.563 Z-2.200 I-1.545 J-7.991 K0.000 F200.000
G1 X126.867 Y18.482 Z-2.200 F200.000
G3 X127.963 Y16.750 Z-2.200 I7.384 J3.460 K0.000 F200.000
G1 X140.680 Y29.467 Z-2.200 F200.000
G2 X142.089 Y28.048 Z-2.200 I-5.096 J-6.472 K0.000 F200.000
G1 X129.382 Y15.341 Z-2.200 F200.000
G3 X131.129 Y14.259 Z-2.200 I5.244 J6.520 K0.000 F200.000
G1 X143.171 Y26.301 Z-2.200 F200.000
G2 X143.871 Y24.173 Z-2.200 I-7.376 J-3.609 K0.000 F200.000
G1 X133.257 Y13.559 Z-2.200 F200.000
G3 X135.967 Y13.440 Z-2.200 I1.719 J8.270 K0.000 F200.000
G1 X143.990 Y21.463 Z-2.200 F200.000
G2 X141.128 Y15.773 Z-2.200 I-8.941 J0.932 K0.000 F200.000
G1 X141.255 Y15.891 Z-2.300 F200.000
G1 X141.128 Y15.773 Z-2.400 F200.000
G3 X143.990 Y21.463 Z-2.400 I-6.080 J6.622 K0.000 F200.000
G1 X135.967 Y13.440 Z-2.400 F200.000
G2 X133.257 Y13.559 Z-2.400 I-0.991 J8.388 K0.000 F200.000
G1 X143.871 Y24.173 Z-2.400 F200.000
G3 X143.171 Y26.301 Z-2.400 I-8.077 J-1.482 K0.000 F200.000
G1 X131.129 Y14.259 Z-2.400 F200.000
G2 X129.382 Y15.341 Z-2.400 I3.497 J7.601 K0.000 F200.000
G1 X142.089 Y28.048 Z-2.400 F200.000
G3 X140.680 Y29.467 Z-2.400 I-6.506 J-5.053 K0.000 F200.000
G1 X127.963 Y16.750 Z-2.400 F200.000
G2 X126.867 Y18.482 Z-2.400 I6.288 J5.193 K0.000 F200.000
G1 X138.948 Y30.563 Z-2.400 F200.000
G3 X136.838 Y31.282 Z-2.400 I-3.654 J-7.273 K0.000 F200.000
G1 X126.148 Y20.592 Z-2.400 F200.000
G2 X125.994 Y23.266 Z-2.400 I8.385 J1.826 K0.000 F200.000
G1 X134.164 Y31.436 Z-2.400 F200.000
G3 X129.537 Y29.637 Z-2.400 I0.802 J-8.914 K0.000 F200.000
G3 X127.793 Y27.893 Z-2.400 I5.144 J-6.888 K0.000 F200.000
G1 X129.537 Y29.637 Z-2.400 F200.000
G1 X129.414 Y29.515 Z-2.500 F200.000
G1 X129.537 Y29.637 Z-2.600 F200.000
G1 X127.793 Y27.893 Z-2.600 F200.000
G2 X129.537 Y29.637 Z-2.600 I6.888 J-5.144 K0.000 F200.000
G2 X134.164 Y31.436 Z-2.600 I5.429 J-7.116 K0.000 F200.000
G1 X125.994 Y23.266 Z-2.600 F200.000
G3 X126.148 Y20.592 Z-2.600 I8.540 J-0.848 K0.000 F200.000
G1 X136.838 Y31.282 Z-2.600 F200.000
G2 X138.948 Y30.563 Z-2.600 I-1.545 J-7.991 K0.000 F200.000
G1 X126.867 Y18.482 Z-2.600 F200.000
G3 X127.963 Y16.750 Z-2.600 I7.384 J3.460 K0.000 F200.000
G1 X140.680 Y29.467 Z-2.600 F200.000
G2 X142.089 Y28.048 Z-2.600 I-5.096 J-6.472 K0.000 F200.000
G1 X129.382 Y15.341 Z-2.600 F200.000
G3 X131.129 Y14.259 Z-2.600 I5.244 J6.520 K0.000 F200.000
G1 X143.171 Y26.301 Z-2.600 F200.000
G2 X143.871 Y24.173 Z-2.600 I-7.376 J-3.609 K0.000 F200.000
G1 X133.257 Y13.559 Z-2.600 F200.000
G3 X135.967 Y13.440 Z-2.600 I1.719 J8.270 K0.000 F200.000
G1 X143.990 Y21.463 Z-2.600 F200.000
G2 X141.128 Y15.773 Z-2.600 I-8.941 J0.932 K0.000 F200.000
G1 X141.255 Y15.891 Z-2.700 F200.000
G1 X141.128 Y15.773 Z-2.800 F200.000
G3 X143.990 Y21.463 Z-2.800 I-6.080 J6.622 K0.000 F200.000
G1 X135.967 Y13.440 Z-2.800 F200.000
G2 X133.257 Y13.559 Z-2.800 I-0.991 J8.388 K0.000 F200.000
G1 X143.871 Y24.173 Z-2.800 F200.000
G3 X143.171 Y26.301 Z-2.800 I-8.077 J-1.482 K0.000 F200.000
G1 X131.129 Y14.259 Z-2.800 F200.000
G2 X129.382 Y15.341 Z-2.800 I3.497 J7.601 K0.000 F200.000
G1 X142.089 Y28.048 Z-2.800 F200.000
G3 X140.680 Y29.467 Z-2.800 I-6.506 J-5.053 K0.000 F200.000
G1 X127.963 Y16.750 Z-2.800 F200.000
G2 X126.867 Y18.482 Z-2.800 I6.288 J5.193 K0.000 F200.000
G1 X138.948 Y30.563 Z-2.800 F200.000
G3 X136.838 Y31.282 Z-2.800 I-3.654 J-7.273 K0.000 F200.000
G1 X126.148 Y20.592 Z-2.800 F200.000
G2 X125.994 Y23.266 Z-2.800 I8.385 J1.826 K0.000 F200.000
G1 X134.164 Y31.436 Z-2.800 F200.000
G3 X129.537 Y29.637 Z-2.800 I0.802 J-8.914 K0.000 F200.000
G3 X127.793 Y27.893 Z-2.800 I5.144 J-6.888 K0.000 F200.000
G1 X129.537 Y29.637 Z-2.800 F200.000
G1 X129.414 Y29.515 Z-2.900 F200.000
G1 X129.537 Y29.637 Z-3.000 F200.000
G1 X127.793 Y27.893 Z-3.000 F200.000
G2 X129.537 Y29.637 Z-3.000 I6.888 J-5.144 K0.000 F200.000
G2 X134.164 Y31.436 Z-3.000 I5.429 J-7.116 K0.000 F200.000
G1 X125.994 Y23.266 Z-3.000 F200.000
G3 X126.148 Y20.592 Z-3.000 I8.540 J-0.848 K0.000 F200.000
G1 X136.838 Y31.282 Z-3.000 F200.000
G2 X138.948 Y30.563 Z-3.000 I-1.545 J-7.991 K0.000 F200.000
G1 X126.867 Y18.482 Z-3.000 F200.000
G3 X127.963 Y16.750 Z-3.000 I7.384 J3.460 K0.000 F200.000
G1 X140.680 Y29.467 Z-3.000 F200.000
G2 X142.089 Y28.048 Z-3.000 I-5.096 J-6.472 K0.000 F200.000
G1 X129.382 Y15.341 Z-3.000 F200.000
G3 X131.129 Y14.259 Z-3.000 I5.244 J6.520 K0.000 F200.000
G1 X143.171 Y26.301 Z-3.000 F200.000
G2 X143.871 Y24.173 Z-3.000 I-7.376 J-3.609 K0.000 F200.000
G1 X133.257 Y13.559 Z-3.000 F200.000
G3 X135.967 Y13.440 Z-3.000 I1.719 J8.270 K0.000 F200.000
G1 X143.990 Y21.463 Z-3.000 F200.000
G2 X141.128 Y15.773 Z-3.000 I-8.941 J0.932 K0.000 F200.000
G1 X141.255 Y15.891 Z-3.100 F200.000
G1 X141.128 Y15.773 Z-3.200 F200.000
G3 X143.990 Y21.463 Z-3.200 I-6.080 J6.622 K0.000 F200.000
G1 X135.967 Y13.440 Z-3.200 F200.000
G2 X133.257 Y13.559 Z-3.200 I-0.991 J8.388 K0.000 F200.000
G1 X143.871 Y24.173 Z-3.200 F200.000
G3 X143.171 Y26.301 Z-3.200 I-8.077 J-1.482 K0.000 F200.000
G1 X131.129 Y14.259 Z-3.200 F200.000
G2 X129.382 Y15.341 Z-3.200 I3.497 J7.601 K0.000 F200.000
G1 X142.089 Y28.048 Z-3.200 F200.000
G3 X140.680 Y29.467 Z-3.200 I-6.506 J-5.053 K0.000 F200.000
G1 X127.963 Y16.750 Z-3.200 F200.000
G2 X126.867 Y18.482 Z-3.200 I6.288 J5.193 K0.000 F200.000
G1 X138.948 Y30.563 Z-3.200 F200.000
G3 X136.838 Y31.282 Z-3.200 I-3.654 J-7.273 K0.000 F200.000
G1 X126.148 Y20.592 Z-3.200 F200.000
G2 X125.994 Y23.266 Z-3.200 I8.385 J1.826 K0.000 F200.000
G1 X134.164 Y31.436 Z-3.200 F200.000
G3 X129.537 Y29.637 Z-3.200 I0.802 J-8.914 K0.000 F200.000
G3 X127.793 Y27.893 Z-3.200 I5.144 J-6.888 K0.000 F200.000
G1 X129.537 Y29.637 Z-3.200 F200.000
G1 X129.414 Y29.515 Z-3.300 F200.000
G1 X129.537 Y29.637 Z-3.400 F200.000
G1 X127.793 Y27.893 Z-3.400 F200.000
G2 X129.537 Y29.637 Z-3.400 I6.888 J-5.144 K0.000 F200.000
G2 X134.164 Y31.436 Z-3.400 I5.429 J-7.116 K0.000 F200.000
G1 X125.994 Y23.266 Z-3.400 F200.000
G3 X126.148 Y20.592 Z-3.400 I8.540 J-0.848 K0.000 F200.000
G1 X136.838 Y31.282 Z-3.400 F200.000
G2 X138.948 Y30.563 Z-3.400 I-1.545 J-7.991 K0.000 F200.000
G1 X126.867 Y18.482 Z-3.400 F200.000
G3 X127.963 Y16.750 Z-3.400 I7.384 J3.460 K0.000 F200.000
G1 X140.680 Y29.467 Z-3.400 F200.000
G2 X142.089 Y28.048 Z-3.400 I-5.096 J-6.472 K0.000 F200.000
G1 X129.382 Y15.341 Z-3.400 F200.000
G3 X131.129 Y14.259 Z-3.400 I5.244 J6.520 K0.000 F200.000
G1 X143.171 Y26.301 Z-3.400 F200.000
G2 X143.871 Y24.173 Z-3.400 I-7.376 J-3.609 K0.000 F200.000
G1 X133.257 Y13.559 Z-3.400 F200.000
G3 X135.967 Y13.440 Z-3.400 I1.719 J8.270 K0.000 F200.000
G1 X143.990 Y21.463 Z-3.400 F200.000
G2 X141.128 Y15.773 Z-3.400 I-8.941 J0.932 K0.000 F200.000
G1 X141.255 Y15.891 Z-3.500 F200.000
G1 X141.128 Y15.773 Z-3.600 F200.000
G3 X143.990 Y21.463 Z-3.600 I-6.080 J6.622 K0.000 F200.000
G1 X135.967 Y13.440 Z-3.600 F200.000
G2 X133.257 Y13.559 Z-3.600 I-0.991 J8.388 K0.000 F200.000
G1 X143.871 Y24.173 Z-3.600 F200.000
G3 X143.171 Y26.301 Z-3.600 I-8.077 J-1.482 K0.000 F200.000
G1 X131.129 Y14.259 Z-3.600 F200.000
G2 X129.382 Y15.341 Z-3.600 I3.497 J7.601 K0.000 F200.000
G1 X142.089 Y28.048 Z-3.600 F200.000
G3 X140.680 Y29.467 Z-3.600 I-6.506 J-5.053 K0.000 F200.000
G1 X127.963 Y16.750 Z-3.600 F200.000
G2 X126.867 Y18.482 Z-3.600 I6.288 J5.193 K0.000 F200.000
G1 X138.948 Y30.563 Z-3.600 F200.000
G3 X136.838 Y31.282 Z-3.600 I-3.654 J-7.273 K0.000 F200.000
G1 X126.148 Y20.592 Z-3.600 F200.000
G2 X125.994 Y23.266 Z-3.600 I8.385 J1.826 K0.000 F200.000
G1 X134.164 Y31.436 Z-3.600 F200.000
G3 X129.537 Y29.637 Z-3.600 I0.802 J-8.914 K0.000 F200.000
G3 X127.793 Y27.893 Z-3.600 I5.144 J-6.888 K0.000 F200.000
G1 X129.537 Y29.637 Z-3.600 F200.000
G1 X129.414 Y29.515 Z-3.700 F200.000
G1 X129.537 Y29.637 Z-3.800 F200.000
G1 X127.793 Y27.893 Z-3.800 F200.000
G2 X129.537 Y29.637 Z-3.800 I6.888 J-5.144 K0.000 F200.000
G2 X134.164 Y31.436 Z-3.800 I5.429 J-7.116 K0.000 F200.000
G1 X125.994 Y23.266 Z-3.800 F200.000
G3 X126.148 Y20.592 Z-3.800 I8.540 J-0.848 K0.000 F200.000
G1 X136.838 Y31.282 Z-3.800 F200.000
G2 X138.948 Y30.563 Z-3.800 I-1.545 J-7.991 K0.000 F200.000
G1 X126.867 Y18.482 Z-3.800 F200.000
G3 X127.963 Y16.750 Z-3.800 I7.384 J3.460 K0.000 F200.000
G1 X140.680 Y29.467 Z-3.800 F200.000
G2 X142.089 Y28.048 Z-3.800 I-5.096 J-6.472 K0.000 F200.000
G1 X129.382 Y15.341 Z-3.800 F200.000
G3 X131.129 Y14.259 Z-3.800 I5.244 J6.520 K0.000 F200.000
G1 X143.171 Y26.301 Z-3.800 F200.000
G2 X143.871 Y24.173 Z-3.800 I-7.376 J-3.609 K0.000 F200.000
G1 X133.257 Y13.559 Z-3.800 F200.000
G3 X135.967 Y13.440 Z-3.800 I1.719 J8.270 K0.000 F200.000
G1 X143.990 Y21.463 Z-3.800 F200.000
G2 X141.128 Y15.773 Z-3.800 I-8.941 J0.932 K0.000 F200.000
G1 X141.255 Y15.891 Z-3.900 F200.000
G1 X141.128 Y15.773 Z-4.000 F200.000
G3 X143.990 Y21.463 Z-4.000 I-6.080 J6.622 K0.000 F200.000
G1 X135.967 Y13.440 Z-4.000 F200.000
G2 X133.257 Y13.559 Z-4.000 I-0.991 J8.388 K0.000 F200.000
G1 X143.871 Y24.173 Z-4.000 F200.000
G3 X143.171 Y26.301 Z-4.000 I-8.077 J-1.482 K0.000 F200.000
G1 X131.129 Y14.259 Z-4.000 F200.000
G2 X129.382 Y15.341 Z-4.000 I3.497 J7.601 K0.000 F200.000
G1 X142.089 Y28.048 Z-4.000 F200.000
G3 X140.680 Y29.467 Z-4.000 I-6.506 J-5.053 K0.000 F200.000
G1 X127.963 Y16.750 Z-4.000 F200.000
G2 X126.867 Y18.482 Z-4.000 I6.288 J5.193 K0.000 F200.000
G1 X138.948 Y30.563 Z-4.000 F200.000
G3 X136.838 Y31.282 Z-4.000 I-3.654 J-7.273 K0.000 F200.000
G1 X126.148 Y20.592 Z-4.000 F200.000
G2 X125.994 Y23.266 Z-4.000 I8.385 J1.826 K0.000 F200.000
G1 X134.164 Y31.436 Z-4.000 F200.000
G3 X129.537 Y29.637 Z-4.000 I0.802 J-8.914 K0.000 F200.000
G3 X127.793 Y27.893 Z-4.000 I5.144 J-6.888 K0.000 F200.000
G1 X129.537 Y29.637 Z-4.000 F200.000
G1 X129.475 Y29.576 Z-4.050 F200.000
G1 X129.537 Y29.637 Z-4.100 F200.000
G1 X127.793 Y27.893 Z-4.100 F200.000
G2 X129.537 Y29.637 Z-4.100 I6.888 J-5.144 K0.000 F200.000
G2 X134.164 Y31.436 Z-4.100 I5.429 J-7.116 K0.000 F200.000
G1 X125.994 Y23.266 Z-4.100 F200.000
G3 X126.148 Y20.592 Z-4.100 I8.540 J-0.848 K0.000 F200.000
G1 X136.838 Y31.282 Z-4.100 F200.000
G2 X138.948 Y30.563 Z-4.100 I-1.545 J-7.991 K0.000 F200.000
G1 X126.867 Y18.482 Z-4.100 F200.000
G3 X127.963 Y16.750 Z-4.100 I7.384 J3.460 K0.000 F200.000
G1 X140.680 Y29.467 Z-4.100 F200.000
G2 X142.089 Y28.048 Z-4.100 I-5.096 J-6.472 K0.000 F200.000
G1 X129.382 Y15.341 Z-4.100 F200.000
G3 X131.129 Y14.259 Z-4.100 I5.244 J6.520 K0.000 F200.000
G1 X143.171 Y26.301 Z-4.100 F200.000
G2 X143.871 Y24.173 Z-4.100 I-7.376 J-3.609 K0.000 F200.000
G1 X133.257 Y13.559 Z-4.100 F200.000
G3 X135.967 Y13.440 Z-4.100 I1.719 J8.270 K0.000 F200.000
G1 X143.990 Y21.463 Z-4.100 F200.000
G2 X141.128 Y15.773 Z-4.100 I-8.941 J0.932 K0.000 F200.000
G0 X141.128 Y15.773 Z5.000
(Finish operation: RampEntryDressup)
(Begin operation: RampEntryDressup001)
(Path: RampEntryDressup001)
G0 X0.000 Y0.000 Z5.000
G0 X35.040 Y19.174 Z5.000
G0 X35.040 Y19.174 Z3.000
G1 X35.252 Y18.920 Z2.810 F200.000
G1 X35.418 Y18.637 Z2.618 F200.000
G1 X35.536 Y18.329 Z2.429 F200.000
G1 X35.616 Y17.741 Z2.086 F200.000
G1 X35.645 Y17.148 Z1.743 F200.000
G1 X35.621 Y16.554 Z1.400 F200.000
G1 X35.645 Y17.148 Z1.057 F200.000
G1 X35.616 Y17.741 Z0.714 F200.000
G1 X35.536 Y18.329 Z0.371 F200.000
G1 X35.418 Y18.637 Z0.182 F200.000
G1 X35.252 Y18.920 Z-0.010 F200.000
G1 X35.040 Y19.174 Z-0.200 F200.000
G2 X35.536 Y18.329 Z-0.200 I-1.425 J-1.405 K0.000 F200.000
G2 X35.619 Y16.530 Z-0.200 I-6.675 J-1.208 K0.000 F200.000
G2 X33.880 Y14.521 Z-0.200 I-2.003 J-0.023 K0.000 F200.000
G2 X32.961 Y14.494 Z-0.200 I-0.698 J7.956 K0.000 F200.000
G2 X30.855 Y17.150 Z-0.200 I-0.190 J2.012 K0.000 F200.000
G2 X31.932 Y18.850 Z-0.200 I7.234 J-3.392 K0.000 F200.000
G2 X35.040 Y19.174 Z-0.200 I1.684 J-1.081 K0.000 F200.000
G1 X35.156 Y19.045 Z-0.300 F200.000
G1 X35.040 Y19.174 Z-0.400 F200.000
G2 X35.536 Y18.329 Z-0.400 I-1.425 J-1.405 K0.000 F200.000
G2 X35.619 Y16.530 Z-0.400 I-6.675 J-1.208 K0.000 F200.000
G2 X33.880 Y14.521 Z-0.400 I-2.003 J-0.023 K0.000 F200.000
G2 X32.961 Y14.494 Z-0.400 I-0.698 J7.956 K0.000 F200.000
G2 X30.855 Y17.150 Z-0.400 I-0.190 J2.012 K0.000 F200.000
G2 X31.932 Y18.850 Z-0.400 I7.234 J-3.392 K0.000 F200.000
G2 X35.040 Y19.174 Z-0.400 I1.684 J-1.081 K0.000 F200.000
G1 X35.156 Y19.045 Z-0.500 F200.000
G1 X35.040 Y19.174 Z-0.600 F200.000
G2 X35.536 Y18.329 Z-0.600 I-1.425 J-1.405 K0.000 F200.000
G2 X35.619 Y16.530 Z-0.600 I-6.675 J-1.208 K0.000 F200.000
G2 X33.880 Y14.521 Z-0.600 I-2.003 J-0.023 K0.000 F200.000
G2 X32.961 Y14.494 Z-0.600 I-0.698 J7.956 K0.000 F200.000
G2 X30.855 Y17.150 Z-0.600 I-0.190 J2.012 K0.000 F200.000
G2 X31.932 Y18.850 Z-0.600 I7.234 J-3.392 K0.000 F200.000
G2 X35.040 Y19.174 Z-0.600 I1.684 J-1.081 K0.000 F200.000
G1 X35.156 Y19.045 Z-0.700 F200.000
G1 X35.040 Y19.174 Z-0.800 F200.000
G2 X35.536 Y18.329 Z-0.800 I-1.425 J-1.405 K0.000 F200.000
G2 X35.619 Y16.530 Z-0.800 I-6.675 J-1.208 K0.000 F200.000
G2 X33.880 Y14.521 Z-0.800 I-2.003 J-0.023 K0.000 F200.000
G2 X32.961 Y14.494 Z-0.800 I-0.698 J7.956 K0.000 F200.000
G2 X30.855 Y17.150 Z-0.800 I-0.190 J2.012 K0.000 F200.000
G2 X31.932 Y18.850 Z-0.800 I7.234 J-3.392 K0.000 F200.000
G2 X35.040 Y19.174 Z-0.800 I1.684 J-1.081 K0.000 F200.000
G1 X35.156 Y19.045 Z-0.900 F200.000
G1 X35.040 Y19.174 Z-1.000 F200.000
G2 X35.536 Y18.329 Z-1.000 I-1.425 J-1.405 K0.000 F200.000
G2 X35.619 Y16.530 Z-1.000 I-6.675 J-1.208 K0.000 F200.000
G2 X33.880 Y14.521 Z-1.000 I-2.003 J-0.023 K0.000 F200.000
G2 X32.961 Y14.494 Z-1.000 I-0.698 J7.956 K0.000 F200.000
G2 X30.855 Y17.150 Z-1.000 I-0.190 J2.012 K0.000 F200.000
G2 X31.932 Y18.850 Z-1.000 I7.234 J-3.392 K0.000 F200.000
G2 X35.040 Y19.174 Z-1.000 I1.684 J-1.081 K0.000 F200.000
G1 X35.156 Y19.045 Z-1.100 F200.000
G1 X35.040 Y19.174 Z-1.200 F200.000
G2 X35.536 Y18.329 Z-1.200 I-1.425 J-1.405 K0.000 F200.000
G2 X35.619 Y16.530 Z-1.200 I-6.675 J-1.208 K0.000 F200.000
G2 X33.880 Y14.521 Z-1.200 I-2.003 J-0.023 K0.000 F200.000
G2 X32.961 Y14.494 Z-1.200 I-0.698 J7.956 K0.000 F200.000
G2 X30.855 Y17.150 Z-1.200 I-0.190 J2.012 K0.000 F200.000
G2 X31.932 Y18.850 Z-1.200 I7.234 J-3.392 K0.000 F200.000
G2 X35.040 Y19.174 Z-1.200 I1.684 J-1.081 K0.000 F200.000
G1 X35.156 Y19.045 Z-1.300 F200.000
G1 X35.040 Y19.174 Z-1.400 F200.000
G2 X35.536 Y18.329 Z-1.400 I-1.425 J-1.405 K0.000 F200.000
G2 X35.619 Y16.530 Z-1.400 I-6.675 J-1.208 K0.000 F200.000
G2 X33.880 Y14.521 Z-1.400 I-2.003 J-0.023 K0.000 F200.000
G2 X32.961 Y14.494 Z-1.400 I-0.698 J7.956 K0.000 F200.000
G2 X30.855 Y17.150 Z-1.400 I-0.190 J2.012 K0.000 F200.000
G2 X31.932 Y18.850 Z-1.400 I7.234 J-3.392 K0.000 F200.000
G2 X35.040 Y19.174 Z-1.400 I1.684 J-1.081 K0.000 F200.000
G1 X35.156 Y19.045 Z-1.500 F200.000
G1 X35.040 Y19.174 Z-1.600 F200.000
G2 X35.536 Y18.329 Z-1.600 I-1.425 J-1.405 K0.000 F200.000
G2 X35.619 Y16.530 Z-1.600 I-6.675 J-1.208 K0.000 F200.000
G2 X33.880 Y14.521 Z-1.600 I-2.003 J-0.023 K0.000 F200.000
G2 X32.961 Y14.494 Z-1.600 I-0.698 J7.956 K0.000 F200.000
G2 X30.855 Y17.150 Z-1.600 I-0.190 J2.012 K0.000 F200.000
G2 X31.932 Y18.850 Z-1.600 I7.234 J-3.392 K0.000 F200.000
G2 X35.040 Y19.174 Z-1.600 I1.684 J-1.081 K0.000 F200.000
G1 X35.156 Y19.045 Z-1.700 F200.000
G1 X35.040 Y19.174 Z-1.800 F200.000
G2 X35.536 Y18.329 Z-1.800 I-1.425 J-1.405 K0.000 F200.000
G2 X35.619 Y16.530 Z-1.800 I-6.675 J-1.208 K0.000 F200.000
G2 X33.880 Y14.521 Z-1.800 I-2.003 J-0.023 K0.000 F200.000
G2 X32.961 Y14.494 Z-1.800 I-0.698 J7.956 K0.000 F200.000
G2 X30.855 Y17.150 Z-1.800 I-0.190 J2.012 K0.000 F200.000
G2 X31.932 Y18.850 Z-1.800 I7.234 J-3.392 K0.000 F200.000
G2 X35.040 Y19.174 Z-1.800 I1.684 J-1.081 K0.000 F200.000
G1 X35.156 Y19.045 Z-1.900 F200.000
G1 X35.040 Y19.174 Z-2.000 F200.000
G2 X35.536 Y18.329 Z-2.000 I-1.425 J-1.405 K0.000 F200.000
G2 X35.619 Y16.530 Z-2.000 I-6.675 J-1.208 K0.000 F200.000
G2 X33.880 Y14.521 Z-2.000 I-2.003 J-0.023 K0.000 F200.000
G2 X32.961 Y14.494 Z-2.000 I-0.698 J7.956 K0.000 F200.000
G2 X30.855 Y17.150 Z-2.000 I-0.190 J2.012 K0.000 F200.000
G2 X31.932 Y18.850 Z-2.000 I7.234 J-3.392 K0.000 F200.000
G2 X35.040 Y19.174 Z-2.000 I1.684 J-1.081 K0.000 F200.000
G1 X35.156 Y19.045 Z-2.100 F200.000
G1 X35.040 Y19.174 Z-2.200 F200.000
G2 X35.536 Y18.329 Z-2.200 I-1.425 J-1.405 K0.000 F200.000
G2 X35.619 Y16.530 Z-2.200 I-6.675 J-1.208 K0.000 F200.000
G2 X33.880 Y14.521 Z-2.200 I-2.003 J-0.023 K0.000 F200.000
G2 X32.961 Y14.494 Z-2.200 I-0.698 J7.956 K0.000 F200.000
G2 X30.855 Y17.150 Z-2.200 I-0.190 J2.012 K0.000 F200.000
G2 X31.932 Y18.850 Z-2.200 I7.234 J-3.392 K0.000 F200.000
G2 X35.040 Y19.174 Z-2.200 I1.684 J-1.081 K0.000 F200.000
G1 X35.156 Y19.045 Z-2.300 F200.000
G1 X35.040 Y19.174 Z-2.400 F200.000
G2 X35.536 Y18.329 Z-2.400 I-1.425 J-1.405 K0.000 F200.000
G2 X35.619 Y16.530 Z-2.400 I-6.675 J-1.208 K0.000 F200.000
G2 X33.880 Y14.521 Z-2.400 I-2.003 J-0.023 K0.000 F200.000
G2 X32.961 Y14.494 Z-2.400 I-0.698 J7.956 K0.000 F200.000
G2 X30.855 Y17.150 Z-2.400 I-0.190 J2.012 K0.000 F200.000
G2 X31.932 Y18.850 Z-2.400 I7.234 J-3.392 K0.000 F200.000
G2 X35.040 Y19.174 Z-2.400 I1.684 J-1.081 K0.000 F200.000
G1 X35.156 Y19.045 Z-2.500 F200.000
G1 X35.040 Y19.174 Z-2.600 F200.000
G2 X35.536 Y18.329 Z-2.600 I-1.425 J-1.405 K0.000 F200.000
G2 X35.619 Y16.530 Z-2.600 I-6.675 J-1.208 K0.000 F200.000
G2 X33.880 Y14.521 Z-2.600 I-2.003 J-0.023 K0.000 F200.000
G2 X32.961 Y14.494 Z-2.600 I-0.698 J7.956 K0.000 F200.000
G2 X30.855 Y17.150 Z-2.600 I-0.190 J2.012 K0.000 F200.000
G2 X31.932 Y18.850 Z-2.600 I7.234 J-3.392 K0.000 F200.000
G2 X35.040 Y19.174 Z-2.600 I1.684 J-1.081 K0.000 F200.000
G1 X35.156 Y19.045 Z-2.700 F200.000
G1 X35.040 Y19.174 Z-2.800 F200.000
G2 X35.536 Y18.329 Z-2.800 I-1.425 J-1.405 K0.000 F200.000
G2 X35.619 Y16.530 Z-2.800 I-6.675 J-1.208 K0.000 F200.000
G2 X33.880 Y14.521 Z-2.800 I-2.003 J-0.023 K0.000 F200.000
G2 X32.961 Y14.494 Z-2.800 I-0.698 J7.956 K0.000 F200.000
G2 X30.855 Y17.150 Z-2.800 I-0.190 J2.012 K0.000 F200.000
G2 X31.932 Y18.850 Z-2.800 I7.234 J-3.392 K0.000 F200.000
G2 X35.040 Y19.174 Z-2.800 I1.684 J-1.081 K0.000 F200.000
G1 X35.156 Y19.045 Z-2.900 F200.000
G1 X35.040 Y19.174 Z-3.000 F200.000
G2 X35.536 Y18.329 Z-3.000 I-1.425 J-1.405 K0.000 F200.000
G2 X35.619 Y16.530 Z-3.000 I-6.675 J-1.208 K0.000 F200.000
G2 X33.880 Y14.521 Z-3.000 I-2.003 J-0.023 K0.000 F200.000
G2 X32.961 Y14.494 Z-3.000 I-0.698 J7.956 K0.000 F200.000
G2 X30.855 Y17.150 Z-3.000 I-0.190 J2.012 K0.000 F200.000
G2 X31.932 Y18.850 Z-3.000 I7.234 J-3.392 K0.000 F200.000
G2 X35.040 Y19.174 Z-3.000 I1.684 J-1.081 K0.000 F200.000
G1 X35.156 Y19.045 Z-3.100 F200.000
G1 X35.040 Y19.174 Z-3.200 F200.000
G2 X35.536 Y18.329 Z-3.200 I-1.425 J-1.405 K0.000 F200.000
G2 X35.619 Y16.530 Z-3.200 I-6.675 J-1.208 K0.000 F200.000
G2 X33.880 Y14.521 Z-3.200 I-2.003 J-0.023 K0.000 F200.000
G2 X32.961 Y14.494 Z-3.200 I-0.698 J7.956 K0.000 F200.000
G2 X30.855 Y17.150 Z-3.200 I-0.190 J2.012 K0.000 F200.000
G2 X31.932 Y18.850 Z-3.200 I7.234 J-3.392 K0.000 F200.000
G2 X35.040 Y19.174 Z-3.200 I1.684 J-1.081 K0.000 F200.000
G1 X35.156 Y19.045 Z-3.300 F200.000
G1 X35.040 Y19.174 Z-3.400 F200.000
G2 X35.536 Y18.329 Z-3.400 I-1.425 J-1.405 K0.000 F200.000
G2 X35.619 Y16.530 Z-3.400 I-6.675 J-1.208 K0.000 F200.000
G2 X33.880 Y14.521 Z-3.400 I-2.003 J-0.023 K0.000 F200.000
G2 X32.961 Y14.494 Z-3.400 I-0.698 J7.956 K0.000 F200.000
G2 X30.855 Y17.150 Z-3.400 I-0.190 J2.012 K0.000 F200.000
G2 X31.932 Y18.850 Z-3.400 I7.234 J-3.392 K0.000 F200.000
G2 X35.040 Y19.174 Z-3.400 I1.684 J-1.081 K0.000 F200.000
G1 X35.156 Y19.045 Z-3.500 F200.000
G1 X35.040 Y19.174 Z-3.600 F200.000
G2 X35.536 Y18.329 Z-3.600 I-1.425 J-1.405 K0.000 F200.000
G2 X35.619 Y16.530 Z-3.600 I-6.675 J-1.208 K0.000 F200.000
G2 X33.880 Y14.521 Z-3.600 I-2.003 J-0.023 K0.000 F200.000
G2 X32.961 Y14.494 Z-3.600 I-0.698 J7.956 K0.000 F200.000
G2 X30.855 Y17.150 Z-3.600 I-0.190 J2.012 K0.000 F200.000
G2 X31.932 Y18.850 Z-3.600 I7.234 J-3.392 K0.000 F200.000
G2 X35.040 Y19.174 Z-3.600 I1.684 J-1.081 K0.000 F200.000
G1 X35.156 Y19.045 Z-3.700 F200.000
G1 X35.040 Y19.174 Z-3.800 F200.000
G2 X35.536 Y18.329 Z-3.800 I-1.425 J-1.405 K0.000 F200.000
G2 X35.619 Y16.530 Z-3.800 I-6.675 J-1.208 K0.000 F200.000
G2 X33.880 Y14.521 Z-3.800 I-2.003 J-0.023 K0.000 F200.000
G2 X32.961 Y14.494 Z-3.800 I-0.698 J7.956 K0.000 F200.000
G2 X30.855 Y17.150 Z-3.800 I-0.190 J2.012 K0.000 F200.000
G2 X31.932 Y18.850 Z-3.800 I7.234 J-3.392 K0.000 F200.000
G2 X35.040 Y19.174 Z-3.800 I1.684 J-1.081 K0.000 F200.000
G1 X35.156 Y19.045 Z-3.900 F200.000
G1 X35.040 Y19.174 Z-4.000 F200.000
G2 X35.536 Y18.329 Z-4.000 I-1.425 J-1.405 K0.000 F200.000
G2 X35.619 Y16.530 Z-4.000 I-6.675 J-1.208 K0.000 F200.000
G2 X33.880 Y14.521 Z-4.000 I-2.003 J-0.023 K0.000 F200.000
G2 X32.961 Y14.494 Z-4.000 I-0.698 J7.956 K0.000 F200.000
G2 X30.855 Y17.150 Z-4.000 I-0.190 J2.012 K0.000 F200.000
G2 X31.932 Y18.850 Z-4.000 I7.234 J-3.392 K0.000 F200.000
G2 X35.040 Y19.174 Z-4.000 I1.684 J-1.081 K0.000 F200.000
G1 X35.100 Y19.111 Z-4.050 F200.000
G1 X35.040 Y19.174 Z-4.100 F200.000
G2 X35.536 Y18.329 Z-4.100 I-1.425 J-1.405 K0.000 F200.000
G2 X35.619 Y16.530 Z-4.100 I-6.675 J-1.208 K0.000 F200.000
G2 X33.880 Y14.521 Z-4.100 I-2.003 J-0.023 K0.000 F200.000
G2 X32.961 Y14.494 Z-4.100 I-0.698 J7.956 K0.000 F200.000
G2 X30.855 Y17.150 Z-4.100 I-0.190 J2.012 K0.000 F200.000
G2 X31.932 Y18.850 Z-4.100 I7.234 J-3.392 K0.000 F200.000
G2 X35.040 Y19.174 Z-4.100 I1.684 J-1.081 K0.000 F200.000
G0 X35.040 Y19.174 Z5.000
G0 X41.052 Y41.081 Z5.000
G0 X41.052 Y41.081 Z3.000
G1 X40.391 Y41.290 Z2.601 F200.000
G1 X39.749 Y41.547 Z2.200 F200.000
G1 X39.127 Y41.851 Z1.799 F200.000
G1 X38.529 Y42.201 Z1.400 F200.000
G1 X39.127 Y41.851 Z1.001 F200.000
G1 X39.749 Y41.547 Z0.600 F200.000
G1 X40.391 Y41.290 Z0.199 F200.000
G1 X41.052 Y41.081 Z-0.200 F200.000
G2 X41.978 Y59.122 Z-0.200 I2.448 J8.919 K0.000 F200.000
G2 X52.622 Y51.522 Z-0.200 I1.522 J-9.122 K0.000 F200.000
G2 X45.022 Y40.878 Z-0.200 I-9.122 J-1.522 K0.000 F200.000
G2 X41.052 Y41.081 Z-0.200 I-1.522 J9.122 K0.000 F200.000
G1 X40.886 Y41.129 Z-0.300 F200.000
G1 X41.052 Y41.081 Z-0.400 F200.000
G2 X41.978 Y59.122 Z-0.400 I2.448 J8.919 K0.000 F200.000
G2 X52.622 Y51.522 Z-0.400 I1.522 J-9.122 K0.000 F200.000
G2 X45.022 Y40.878 Z-0.400 I-9.122 J-1.522 K0.000 F200.000
G2 X41.052 Y41.081 Z-0.400 I-1.522 J9.122 K0.000 F200.000
G1 X40.886 Y41.129 Z-0.500 F200.000
G1 X41.052 Y41.081 Z-0.600 F200.000
G2 X41.978 Y59.122 Z-0.600 I2.448 J8.919 K0.000 F200.000
G2 X52.622 Y51.522 Z-0.600 I1.522 J-9.122 K0.000 F200.000
G2 X45.022 Y40.878 Z-0.600 I-9.122 J-1.522 K0.000 F200.000
G2 X41.052 Y41.081 Z-0.600 I-1.522 J9.122 K0.000 F200.000
G1 X40.886 Y41.129 Z-0.700 F200.000
G1 X41.052 Y41.081 Z-0.800 F200.000
G2 X41.978 Y59.122 Z-0.800 I2.448 J8.919 K0.000 F200.000
G2 X52.622 Y51.522 Z-0.800 I1.522 J-9.122 K0.000 F200.000
G2 X45.022 Y40.878 Z-0.800 I-9.122 J-1.522 K0.000 F200.000
G2 X41.052 Y41.081 Z-0.800 I-1.522 J9.122 K0.000 F200.000
G1 X40.886 Y41.129 Z-0.900 F200.000
G1 X41.052 Y41.081 Z-1.000 F200.000
G2 X41.978 Y59.122 Z-1.000 I2.448 J8.919 K0.000 F200.000
G2 X52.622 Y51.522 Z-1.000 I1.522 J-9.122 K0.000 F200.000
G2 X45.022 Y40.878 Z-1.000 I-9.122 J-1.522 K0.000 F200.000
G2 X41.052 Y41.081 Z-1.000 I-1.522 J9.122 K0.000 F200.000
G1 X40.886 Y41.129 Z-1.100 F200.000
G1 X41.052 Y41.081 Z-1.200 F200.000
G2 X41.978 Y59.122 Z-1.200 I2.448 J8.919 K0.000 F200.000
G2 X52.622 Y51.522 Z-1.200 I1.522 J-9.122 K0.000 F200.000
G2 X45.022 Y40.878 Z-1.200 I-9.122 J-1.522 K0.000 F200.000
G2 X41.052 Y41.081 Z-1.200 I-1.522 J9.122 K0.000 F200.000
G1 X40.886 Y41.129 Z-1.300 F200.000
G1 X41.052 Y41.081 Z-1.400 F200.000
G2 X41.978 Y59.122 Z-1.400 I2.448 J8.919 K0.000 F200.000
G2 X52.622 Y51.522 Z-1.400 I1.522 J-9.122 K0.000 F200.000
G2 X45.022 Y40.878 Z-1.400 I-9.122 J-1.522 K0.000 F200.000
G2 X41.052 Y41.081 Z-1.400 I-1.522 J9.122 K0.000 F200.000
G1 X40.886 Y41.129 Z-1.500 F200.000
G1 X41.052 Y41.081 Z-1.600 F200.000
G2 X41.978 Y59.122 Z-1.600 I2.448 J8.919 K0.000 F200.000
G2 X52.622 Y51.522 Z-1.600 I1.522 J-9.122 K0.000 F200.000
G2 X45.022 Y40.878 Z-1.600 I-9.122 J-1.522 K0.000 F200.000
G2 X41.052 Y41.081 Z-1.600 I-1.522 J9.122 K0.000 F200.000
G1 X40.886 Y41.129 Z-1.700 F200.000
G1 X41.052 Y41.081 Z-1.800 F200.000
G2 X41.978 Y59.122 Z-1.800 I2.448 J8.919 K0.000 F200.000
G2 X52.622 Y51.522 Z-1.800 I1.522 J-9.122 K0.000 F200.000
G2 X45.022 Y40.878 Z-1.800 I-9.122 J-1.522 K0.000 F200.000
G2 X41.052 Y41.081 Z-1.800 I-1.522 J9.122 K0.000 F200.000
G1 X40.886 Y41.129 Z-1.900 F200.000
G1 X41.052 Y41.081 Z-2.000 F200.000
G2 X41.978 Y59.122 Z-2.000 I2.448 J8.919 K0.000 F200.000
G2 X52.622 Y51.522 Z-2.000 I1.522 J-9.122 K0.000 F200.000
G2 X45.022 Y40.878 Z-2.000 I-9.122 J-1.522 K0.000 F200.000
G2 X41.052 Y41.081 Z-2.000 I-1.522 J9.122 K0.000 F200.000
G1 X40.886 Y41.129 Z-2.100 F200.000
G1 X41.052 Y41.081 Z-2.200 F200.000
G2 X41.978 Y59.122 Z-2.200 I2.448 J8.919 K0.000 F200.000
G2 X52.622 Y51.522 Z-2.200 I1.522 J-9.122 K0.000 F200.000
G2 X45.022 Y40.878 Z-2.200 I-9.122 J-1.522 K0.000 F200.000
G2 X41.052 Y41.081 Z-2.200 I-1.522 J9.122 K0.000 F200.000
G1 X40.886 Y41.129 Z-2.300 F200.000
G1 X41.052 Y41.081 Z-2.400 F200.000
G2 X41.978 Y59.122 Z-2.400 I2.448 J8.919 K0.000 F200.000
G2 X52.622 Y51.522 Z-2.400 I1.522 J-9.122 K0.000 F200.000
G2 X45.022 Y40.878 Z-2.400 I-9.122 J-1.522 K0.000 F200.000
G2 X41.052 Y41.081 Z-2.400 I-1.522 J9.122 K0.000 F200.000
G1 X40.886 Y41.129 Z-2.500 F200.000
G1 X41.052 Y41.081 Z-2.600 F200.000
G2 X41.978 Y59.122 Z-2.600 I2.448 J8.919 K0.000 F200.000
G2 X52.622 Y51.522 Z-2.600 I1.522 J-9.122 K0.000 F200.000
G2 X45.022 Y40.878 Z-2.600 I-9.122 J-1.522 K0.000 F200.000
G2 X41.052 Y41.081 Z-2.600 I-1.522 J9.122 K0.000 F200.000
G1 X40.886 Y41.129 Z-2.700 F200.000
G1 X41.052 Y41.081 Z-2.800 F200.000
G2 X41.978 Y59.122 Z-2.800 I2.448 J8.919 K0.000 F200.000
G2 X52.622 Y51.522 Z-2.800 I1.522 J-9.122 K0.000 F200.000
G2 X45.022 Y40.878 Z-2.800 I-9.122 J-1.522 K0.000 F200.000
G2 X41.052 Y41.081 Z-2.800 I-1.522 J9.122 K0.000 F200.000
G1 X40.886 Y41.129 Z-2.900 F200.000
G1 X41.052 Y41.081 Z-3.000 F200.000
G2 X41.978 Y59.122 Z-3.000 I2.448 J8.919 K0.000 F200.000
G2 X52.622 Y51.522 Z-3.000 I1.522 J-9.122 K0.000 F200.000
G2 X45.022 Y40.878 Z-3.000 I-9.122 J-1.522 K0.000 F200.000
G2 X41.052 Y41.081 Z-3.000 I-1.522 J9.122 K0.000 F200.000
G1 X40.886 Y41.129 Z-3.100 F200.000
G1 X41.052 Y41.081 Z-3.200 F200.000
G2 X41.978 Y59.122 Z-3.200 I2.448 J8.919 K0.000 F200.000
G2 X52.622 Y51.522 Z-3.200 I1.522 J-9.122 K0.000 F200.000
G2 X45.022 Y40.878 Z-3.200 I-9.122 J-1.522 K0.000 F200.000
G2 X41.052 Y41.081 Z-3.200 I-1.522 J9.122 K0.000 F200.000
G1 X40.886 Y41.129 Z-3.300 F200.000
G1 X41.052 Y41.081 Z-3.400 F200.000
G2 X41.978 Y59.122 Z-3.400 I2.448 J8.919 K0.000 F200.000
G2 X52.622 Y51.522 Z-3.400 I1.522 J-9.122 K0.000 F200.000
G2 X45.022 Y40.878 Z-3.400 I-9.122 J-1.522 K0.000 F200.000
G2 X41.052 Y41.081 Z-3.400 I-1.522 J9.122 K0.000 F200.000
G1 X40.886 Y41.129 Z-3.500 F200.000
G1 X41.052 Y41.081 Z-3.600 F200.000
G2 X41.978 Y59.122 Z-3.600 I2.448 J8.919 K0.000 F200.000
G2 X52.622 Y51.522 Z-3.600 I1.522 J-9.122 K0.000 F200.000
G2 X45.022 Y40.878 Z-3.600 I-9.122 J-1.522 K0.000 F200.000
G2 X41.052 Y41.081 Z-3.600 I-1.522 J9.122 K0.000 F200.000
G1 X40.886 Y41.129 Z-3.700 F200.000
G1 X41.052 Y41.081 Z-3.800 F200.000
G2 X41.978 Y59.122 Z-3.800 I2.448 J8.919 K0.000 F200.000
G2 X52.622 Y51.522 Z-3.800 I1.522 J-9.122 K0.000 F200.000
G2 X45.022 Y40.878 Z-3.800 I-9.122 J-1.522 K0.000 F200.000
G2 X41.052 Y41.081 Z-3.800 I-1.522 J9.122 K0.000 F200.000
G1 X40.886 Y41.129 Z-3.900 F200.000
G1 X41.052 Y41.081 Z-4.000 F200.000
G2 X41.978 Y59.122 Z-4.000 I2.448 J8.919 K0.000 F200.000
G2 X52.622 Y51.522 Z-4.000 I1.522 J-9.122 K0.000 F200.000
G2 X45.022 Y40.878 Z-4.000 I-9.122 J-1.522 K0.000 F200.000
G2 X41.052 Y41.081 Z-4.000 I-1.522 J9.122 K0.000 F200.000
G1 X40.969 Y41.105 Z-4.050 F200.000
G1 X41.052 Y41.081 Z-4.100 F200.000
G2 X41.978 Y59.122 Z-4.100 I2.448 J8.919 K0.000 F200.000
G2 X52.622 Y51.522 Z-4.100 I1.522 J-9.122 K0.000 F200.000
G2 X45.022 Y40.878 Z-4.100 I-9.122 J-1.522 K0.000 F200.000
G2 X41.052 Y41.081 Z-4.100 I-1.522 J9.122 K0.000 F200.000
G0 X41.052 Y41.081 Z5.000
G0 X125.929 Y24.231 Z5.000
G0 X125.929 Y24.231 Z3.000
G1 X126.089 Y24.905 Z2.601 F200.000
G1 X126.299 Y25.565 Z2.200 F200.000
G1 X126.558 Y26.207 Z1.799 F200.000
G1 X126.865 Y26.828 Z1.400 F200.000
G1 X126.558 Y26.207 Z1.001 F200.000
G1 X126.299 Y25.565 Z0.600 F200.000
G1 X126.089 Y24.905 Z0.199 F200.000
G1 X125.929 Y24.231 Z-0.200 F200.000
G2 X133.478 Y31.552 Z-0.200 I9.071 J-1.801 K0.000 F200.000
G2 X136.522 Y13.308 Z-0.200 I1.522 J-9.122 K0.000 F200.000
G2 X125.929 Y24.231 Z-0.200 I-1.522 J9.122 K0.000 F200.000
G1 X125.964 Y24.400 Z-0.300 F200.000
G1 X125.929 Y24.231 Z-0.400 F200.000
G2 X133.478 Y31.552 Z-0.400 I9.071 J-1.801 K0.000 F200.000
G2 X136.522 Y13.308 Z-0.400 I1.522 J-9.122 K0.000 F200.000
G2 X125.929 Y24.231 Z-0.400 I-1.522 J9.122 K0.000 F200.000
G1 X125.964 Y24.400 Z-0.500 F200.000
G1 X125.929 Y24.231 Z-0.600 F200.000
G2 X133.478 Y31.552 Z-0.600 I9.071 J-1.801 K0.000 F200.000
G2 X136.522 Y13.308 Z-0.600 I1.522 J-9.122 K0.000 F200.000
G2 X125.929 Y24.231 Z-0.600 I-1.522 J9.122 K0.000 F200.000
G1 X125.964 Y24.400 Z-0.700 F200.000
G1 X125.929 Y24.231 Z-0.800 F200.000
G2 X133.478 Y31.552 Z-0.800 I9.071 J-1.801 K0.000 F200.000
G2 X136.522 Y13.308 Z-0.800 I1.522 J-9.122 K0.000 F200.000
G2 X125.929 Y24.231 Z-0.800 I-1.522 J9.122 K0.000 F200.000
G1 X125.964 Y24.400 Z-0.900 F200.000
G1 X125.929 Y24.231 Z-1.000 F200.000
G2 X133.478 Y31.552 Z-1.000 I9.071 J-1.801 K0.000 F200.000
G2 X136.522 Y13.308 Z-1.000 I1.522 J-9.122 K0.000 F200.000
G2 X125.929 Y24.231 Z-1.000 I-1.522 J9.122 K0.000 F200.000
G1 X125.964 Y24.400 Z-1.100 F200.000
G1 X125.929 Y24.231 Z-1.200 F200.000
G2 X133.478 Y31.552 Z-1.200 I9.071 J-1.801 K0.000 F200.000
G2 X136.522 Y13.308 Z-1.200 I1.522 J-9.122 K0.000 F200.000
G2 X125.929 Y24.231 Z-1.200 I-1.522 J9.122 K0.000 F200.000
G1 X125.964 Y24.400 Z-1.300 F200.000
G1 X125.929 Y24.231 Z-1.400 F200.000
G2 X133.478 Y31.552 Z-1.400 I9.071 J-1.801 K0.000 F200.000
G2 X136.522 Y13.308 Z-1.400 I1.522 J-9.122 K0.000 F200.000
G2 X125.929 Y24.231 Z-1.400 I-1.522 J9.122 K0.000 F200.000
G1 X125.964 Y24.400 Z-1.500 F200.000
G1 X125.929 Y24.231 Z-1.600 F200.000
G2 X133.478 Y31.552 Z-1.600 I9.071 J-1.801 K0.000 F200.000
G2 X136.522 Y13.308 Z-1.600 I1.522 J-9.122 K0.000 F200.000
G2 X125.929 Y24.231 Z-1.600 I-1.522 J9.122 K0.000 F200.000
G1 X125.964 Y24.400 Z-1.700 F200.000
G1 X125.929 Y24.231 Z-1.800 F200.000
G2 X133.478 Y31.552 Z-1.800 I9.071 J-1.801 K0.000 F200.000
G2 X136.522 Y13.308 Z-1.800 I1.522 J-9.122 K0.000 F200.000
G2 X125.929 Y24.231 Z-1.800 I-1.522 J9.122 K0.000 F200.000
G1 X125.964 Y24.400 Z-1.900 F200.000
G1 X125.929 Y24.231 Z-2.000 F200.000
G2 X133.478 Y31.552 Z-2.000 I9.071 J-1.801 K0.000 F200.000
G2 X136.522 Y13.308 Z-2.000 I1.522 J-9.122 K0.000 F200.000
G2 X125.929 Y24.231 Z-2.000 I-1.522 J9.122 K0.000 F200.000
G1 X125.964 Y24.400 Z-2.100 F200.000
G1 X125.929 Y24.231 Z-2.200 F200.000
G2 X133.478 Y31.552 Z-2.200 I9.071 J-1.801 K0.000 F200.000
G2 X136.522 Y13.308 Z-2.200 I1.522 J-9.122 K0.000 F200.000
G2 X125.929 Y24.231 Z-2.200 I-1.522 J9.122 K0.000 F200.000
G1 X125.964 Y24.400 Z-2.300 F200.000
G1 X125.929 Y24.231 Z-2.400 F200.000
G2 X133.478 Y31.552 Z-2.400 I9.071 J-1.801 K0.000 F200.000
G2 X136.522 Y13.308 Z-2.400 I1.522 J-9.122 K0.000 F200.000
G2 X125.929 Y24.231 Z-2.400 I-1.522 J9.122 K0.000 F200.000
G1 X125.964 Y24.400 Z-2.500 F200.000
G1 X125.929 Y24.231 Z-2.600 F200.000
G2 X133.478 Y31.552 Z-2.600 I9.071 J-1.801 K0.000 F200.000
G2 X136.522 Y13.308 Z-2.600 I1.522 J-9.122 K0.000 F200.000
G2 X125.929 Y24.231 Z-2.600 I-1.522 J9.122 K0.000 F200.000
G1 X125.964 Y24.400 Z-2.700 F200.000
G1 X125.929 Y24.231 Z-2.800 F200.000
G2 X133.478 Y31.552 Z-2.800 I9.071 J-1.801 K0.000 F200.000
G2 X136.522 Y13.308 Z-2.800 I1.522 J-9.122 K0.000 F200.000
G2 X125.929 Y24.231 Z-2.800 I-1.522 J9.122 K0.000 F200.000
G1 X125.964 Y24.400 Z-2.900 F200.000
G1 X125.929 Y24.231 Z-3.000 F200.000
G2 X133.478 Y31.552 Z-3.000 I9.071 J-1.801 K0.000 F200.000
G2 X136.522 Y13.308 Z-3.000 I1.522 J-9.122 K0.000 F200.000
G2 X125.929 Y24.231 Z-3.000 I-1.522 J9.122 K0.000 F200.000
G1 X125.964 Y24.400 Z-3.100 F200.000
G1 X125.929 Y24.231 Z-3.200 F200.000
G2 X133.478 Y31.552 Z-3.200 I9.071 J-1.801 K0.000 F200.000
G2 X136.522 Y13.308 Z-3.200 I1.522 J-9.122 K0.000 F200.000
G2 X125.929 Y24.231 Z-3.200 I-1.522 J9.122 K0.000 F200.000
G1 X125.964 Y24.400 Z-3.300 F200.000
G1 X125.929 Y24.231 Z-3.400 F200.000
G2 X133.478 Y31.552 Z-3.400 I9.071 J-1.801 K0.000 F200.000
G2 X136.522 Y13.308 Z-3.400 I1.522 J-9.122 K0.000 F200.000
G2 X125.929 Y24.231 Z-3.400 I-1.522 J9.122 K0.000 F200.000
G1 X125.964 Y24.400 Z-3.500 F200.000
G1 X125.929 Y24.231 Z-3.600 F200.000
G2 X133.478 Y31.552 Z-3.600 I9.071 J-1.801 K0.000 F200.000
G2 X136.522 Y13.308 Z-3.600 I1.522 J-9.122 K0.000 F200.000
G2 X125.929 Y24.231 Z-3.600 I-1.522 J9.122 K0.000 F200.000
G1 X125.964 Y24.400 Z-3.700 F200.000
G1 X125.929 Y24.231 Z-3.800 F200.000
G2 X133.478 Y31.552 Z-3.800 I9.071 J-1.801 K0.000 F200.000
G2 X136.522 Y13.308 Z-3.800 I1.522 J-9.122 K0.000 F200.000
G2 X125.929 Y24.231 Z-3.800 I-1.522 J9.122 K0.000 F200.000
G1 X125.964 Y24.400 Z-3.900 F200.000
G1 X125.929 Y24.231 Z-4.000 F200.000
G2 X133.478 Y31.552 Z-4.000 I9.071 J-1.801 K0.000 F200.000
G2 X136.522 Y13.308 Z-4.000 I1.522 J-9.122 K0.000 F200.000
G2 X125.929 Y24.231 Z-4.000 I-1.522 J9.122 K0.000 F200.000
G1 X125.946 Y24.316 Z-4.050 F200.000
G1 X125.929 Y24.231 Z-4.100 F200.000
G2 X133.478 Y31.552 Z-4.100 I9.071 J-1.801 K0.000 F200.000
G2 X136.522 Y13.308 Z-4.100 I1.522 J-9.122 K0.000 F200.000
G2 X125.929 Y24.231 Z-4.100 I-1.522 J9.122 K0.000 F200.000
G0 X125.929 Y24.231 Z5.000
(Finish operation: RampEntryDressup001)
(Begin operation: RampEntryDressup002)
(Path: RampEntryDressup002)
G0 X0.000 Y0.000 Z5.000
G0 X23.120 Y6.500 Z5.000
G0 X23.120 Y6.500 Z3.000
G1 X23.120 Y6.500 Z0.000 F150.000
G1 X23.084 Y6.314 Z-0.012 F200.000
G1 X22.981 Y6.155 Z-0.024 F200.000
G1 X22.827 Y6.045 Z-0.036 F200.000
G1 X22.643 Y6.001 Z-0.047 F200.000
G1 X22.455 Y6.028 Z-0.059 F200.000
G1 X22.291 Y6.123 Z-0.071 F200.000
G1 X22.175 Y6.273 Z-0.083 F200.000
G1 X22.120 Y6.500 Z-0.098 F200.000
G1 X22.156 Y6.686 Z-0.109 F200.000
G1 X22.259 Y6.845 Z-0.121 F200.000
G1 X22.413 Y6.955 Z-0.133 F200.000
G1 X22.597 Y6.999 Z-0.145 F200.000
G1 X22.785 Y6.972 Z-0.157 F200.000
G1 X22.949 Y6.877 Z-0.169 F200.000
G1 X23.065 Y6.727 Z-0.181 F200.000
G1 X23.120 Y6.500 Z-0.195 F200.000
G1 X23.084 Y6.314 Z-0.207 F200.000
G1 X22.981 Y6.155 Z-0.219 F200.000
G1 X22.827 Y6.045 Z-0.231 F200.000
G1 X22.643 Y6.001 Z-0.243 F200.000
G1 X22.455 Y6.028 Z-0.254 F200.000
G1 X22.291 Y6.123 Z-0.266 F200.000
G1 X22.175 Y6.273 Z-0.278 F200.000
G1 X22.120 Y6.500 Z-0.293 F200.000
G1 X22.156 Y6.686 Z-0.305 F200.000
G1 X22.259 Y6.845 Z-0.317 F200.000
G1 X22.413 Y6.955 Z-0.328 F200.000
G1 X22.597 Y6.999 Z-0.340 F200.000
G1 X22.785 Y6.972 Z-0.352 F200.000
G1 X22.949 Y6.877 Z-0.364 F200.000
G1 X23.065 Y6.727 Z-0.376 F200.000
G1 X23.120 Y6.500 Z-0.390 F200.000
G1 X23.084 Y6.314 Z-0.402 F200.000
G1 X22.981 Y6.155 Z-0.414 F200.000
G1 X22.827 Y6.045 Z-0.426 F200.000
G1 X22.643 Y6.001 Z-0.438 F200.000
G1 X22.455 Y6.028 Z-0.450 F200.000
G1 X22.291 Y6.123 Z-0.462 F200.000
G1 X22.175 Y6.273 Z-0.473 F200.000
G1 X22.120 Y6.500 Z-0.488 F200.000
G1 X22.156 Y6.686 Z-0.500 F200.000
G1 X22.259 Y6.845 Z-0.512 F200.000
G1 X22.413 Y6.955 Z-0.524 F200.000
G1 X22.597 Y6.999 Z-0.535 F200.000
G1 X22.785 Y6.972 Z-0.547 F200.000
G1 X22.949 Y6.877 Z-0.559 F200.000
G1 X23.065 Y6.727 Z-0.571 F200.000
G1 X23.120 Y6.500 Z-0.586 F200.000
G1 X23.084 Y6.314 Z-0.598 F200.000
G1 X22.981 Y6.155 Z-0.609 F200.000
G1 X22.827 Y6.045 Z-0.621 F200.000
G1 X22.643 Y6.001 Z-0.633 F200.000
G1 X22.455 Y6.028 Z-0.645 F200.000
G1 X22.291 Y6.123 Z-0.657 F200.000
G1 X22.175 Y6.273 Z-0.669 F200.000
G1 X22.120 Y6.500 Z-0.683 F200.000
G1 X22.156 Y6.686 Z-0.695 F200.000
G1 X22.259 Y6.845 Z-0.707 F200.000
G1 X22.413 Y6.955 Z-0.719 F200.000
G1 X22.597 Y6.999 Z-0.731 F200.000
G1 X22.785 Y6.972 Z-0.743 F200.000
G1 X22.949 Y6.877 Z-0.754 F200.000
G1 X23.065 Y6.727 Z-0.766 F200.000
G1 X23.120 Y6.500 Z-0.781 F200.000
G1 X23.084 Y6.314 Z-0.793 F200.000
G1 X22.981 Y6.155 Z-0.805 F200.000
G1 X22.827 Y6.045 Z-0.817 F200.000
G1 X22.643 Y6.001 Z-0.828 F200.000
G1 X22.455 Y6.028 Z-0.840 F200.000
G1 X22.291 Y6.123 Z-0.852 F200.000
G1 X22.175 Y6.273 Z-0.864 F200.000
G1 X22.120 Y6.500 Z-0.879 F200.000
G1 X22.156 Y6.686 Z-0.890 F200.000
G1 X22.259 Y6.845 Z-0.902 F200.000
G1 X22.413 Y6.955 Z-0.914 F200.000
G1 X22.597 Y6.999 Z-0.926 F200.000
G1 X22.785 Y6.972 Z-0.938 F200.000
G1 X22.949 Y6.877 Z-0.950 F200.000
G1 X23.065 Y6.727 Z-0.962 F200.000
G1 X23.120 Y6.500 Z-0.976 F200.000
G1 X23.084 Y6.314 Z-0.988 F200.000
G1 X22.981 Y6.155 Z-1.000 F200.000
G1 X22.827 Y6.045 Z-1.012 F200.000
G1 X22.643 Y6.001 Z-1.024 F200.000
G1 X22.455 Y6.028 Z-1.035 F200.000
G1 X22.291 Y6.123 Z-1.047 F200.000
G1 X22.175 Y6.273 Z-1.059 F200.000
G1 X22.120 Y6.500 Z-1.074 F200.000
G1 X22.156 Y6.686 Z-1.086 F200.000
G1 X22.259 Y6.845 Z-1.098 F200.000
G1 X22.413 Y6.955 Z-1.109 F200.000
G1 X22.597 Y6.999 Z-1.121 F200.000
G1 X22.785 Y6.972 Z-1.133 F200.000
G1 X22.949 Y6.877 Z-1.145 F200.000
G1 X23.065 Y6.727 Z-1.157 F200.000
G1 X23.120 Y6.500 Z-1.171 F200.000
G1 X23.084 Y6.314 Z-1.183 F200.000
G1 X22.981 Y6.155 Z-1.195 F200.000
G1 X22.827 Y6.045 Z-1.207 F200.000
G1 X22.643 Y6.001 Z-1.219 F200.000
G1 X22.455 Y6.028 Z-1.231 F200.000
G1 X22.291 Y6.123 Z-1.243 F200.000
G1 X22.175 Y6.273 Z-1.254 F200.000
G1 X22.120 Y6.500 Z-1.269 F200.000
G1 X22.156 Y6.686 Z-1.281 F200.000
G1 X22.259 Y6.845 Z-1.293 F200.000
G1 X22.413 Y6.955 Z-1.305 F200.000
G1 X22.597 Y6.999 Z-1.316 F200.000
G1 X22.785 Y6.972 Z-1.328 F200.000
G1 X22.949 Y6.877 Z-1.340 F200.000
G1 X23.065 Y6.727 Z-1.352 F200.000
G1 X23.120 Y6.500 Z-1.367 F200.000
G1 X23.084 Y6.314 Z-1.379 F200.000
G1 X22.981 Y6.155 Z-1.390 F200.000
G1 X22.827 Y6.045 Z-1.402 F200.000
G1 X22.643 Y6.001 Z-1.414 F200.000
G1 X22.455 Y6.028 Z-1.426 F200.000
G1 X22.291 Y6.123 Z-1.438 F200.000
G1 X22.175 Y6.273 Z-1.450 F200.000
G1 X22.120 Y6.500 Z-1.464 F200.000
G1 X22.156 Y6.686 Z-1.476 F200.000
G1 X22.259 Y6.845 Z-1.488 F200.000
G1 X22.413 Y6.955 Z-1.500 F200.000
G1 X22.597 Y6.999 Z-1.512 F200.000
G1 X22.785 Y6.972 Z-1.524 F200.000
G1 X22.949 Y6.877 Z-1.535 F200.000
G1 X23.065 Y6.727 Z-1.547 F200.000
G1 X23.120 Y6.500 Z-1.562 F200.000
G1 X23.084 Y6.314 Z-1.574 F200.000
G1 X22.981 Y6.155 Z-1.586 F200.000
G1 X22.827 Y6.045 Z-1.597 F200.000
G1 X22.643 Y6.001 Z-1.609 F200.000
G1 X22.455 Y6.028 Z-1.621 F200.000
G1 X22.291 Y6.123 Z-1.633 F200.000
G1 X22.175 Y6.273 Z-1.645 F200.000
G1 X22.120 Y6.500 Z-1.660 F200.000
G1 X22.156 Y6.686 Z-1.671 F200.000
G1 X22.259 Y6.845 Z-1.683 F200.000
G1 X22.413 Y6.955 Z-1.695 F200.000
G1 X22.597 Y6.999 Z-1.707 F200.000
G1 X22.785 Y6.972 Z-1.719 F200.000
G1 X22.949 Y6.877 Z-1.731 F200.000
G1 X23.065 Y6.727 Z-1.742 F200.000
G1 X23.120 Y6.500 Z-1.757 F200.000
G1 X23.084 Y6.314 Z-1.769 F200.000
G1 X22.981 Y6.155 Z-1.781 F200.000
G1 X22.827 Y6.045 Z-1.793 F200.000
G1 X22.643 Y6.001 Z-1.805 F200.000
G1 X22.455 Y6.028 Z-1.816 F200.000
G1 X22.291 Y6.123 Z-1.828 F200.000
G1 X22.175 Y6.273 Z-1.840 F200.000
G1 X22.120 Y6.500 Z-1.855 F200.000
G1 X22.156 Y6.686 Z-1.867 F200.000
G1 X22.259 Y6.845 Z-1.878 F200.000
G1 X22.413 Y6.955 Z-1.890 F200.000
G1 X22.597 Y6.999 Z-1.902 F200.000
G1 X22.785 Y6.972 Z-1.914 F200.000
G1 X22.949 Y6.877 Z-1.926 F200.000
G1 X23.065 Y6.727 Z-1.938 F200.000
G1 X23.120 Y6.500 Z-1.952 F200.000
G1 X23.084 Y6.314 Z-1.964 F200.000
G1 X22.981 Y6.155 Z-1.976 F200.000
G1 X22.827 Y6.045 Z-1.988 F200.000
G1 X22.643 Y6.001 Z-2.000 F200.000
G1 X22.455 Y6.028 Z-2.012 F200.000
G1 X22.291 Y6.123 Z-2.023 F200.000
G1 X22.175 Y6.273 Z-2.035 F200.000
G1 X22.120 Y6.500 Z-2.050 F200.000
G1 X22.156 Y6.686 Z-2.062 F200.000
G1 X22.259 Y6.845 Z-2.074 F200.000
G1 X22.413 Y6.955 Z-2.086 F200.000
G1 X22.597 Y6.999 Z-2.097 F200.000
G1 X22.785 Y6.972 Z-2.109 F200.000
G1 X22.949 Y6.877 Z-2.121 F200.000
G1 X23.065 Y6.727 Z-2.133 F200.000
G1 X23.120 Y6.500 Z-2.148 F200.000
G1 X23.084 Y6.314 Z-2.159 F200.000
G1 X22.981 Y6.155 Z-2.171 F200.000
G1 X22.827 Y6.045 Z-2.183 F200.000
G1 X22.643 Y6.001 Z-2.195 F200.000
G1 X22.455 Y6.028 Z-2.207 F200.000
G1 X22.291 Y6.123 Z-2.219 F200.000
G1 X22.175 Y6.273 Z-2.231 F200.000
G1 X22.120 Y6.500 Z-2.245 F200.000
G1 X22.156 Y6.686 Z-2.257 F200.000
G1 X22.259 Y6.845 Z-2.269 F200.000
G1 X22.413 Y6.955 Z-2.281 F200.000
G1 X22.597 Y6.999 Z-2.293 F200.000
G1 X22.785 Y6.972 Z-2.304 F200.000
G1 X22.949 Y6.877 Z-2.316 F200.000
G1 X23.065 Y6.727 Z-2.328 F200.000
G1 X23.120 Y6.500 Z-2.343 F200.000
G1 X23.084 Y6.314 Z-2.355 F200.000
G1 X22.981 Y6.155 Z-2.367 F200.000
G1 X22.827 Y6.045 Z-2.378 F200.000
G1 X22.643 Y6.001 Z-2.390 F200.000
G1 X22.455 Y6.028 Z-2.402 F200.000
G1 X22.291 Y6.123 Z-2.414 F200.000
G1 X22.175 Y6.273 Z-2.426 F200.000
G1 X22.120 Y6.500 Z-2.440 F200.000
G1 X22.156 Y6.686 Z-2.452 F200.000
G1 X22.259 Y6.845 Z-2.464 F200.000
G1 X22.413 Y6.955 Z-2.476 F200.000
G1 X22.597 Y6.999 Z-2.488 F200.000
G1 X22.785 Y6.972 Z-2.500 F200.000
G1 X22.949 Y6.877 Z-2.512 F200.000
G1 X23.065 Y6.727 Z-2.523 F200.000
G1 X23.120 Y6.500 Z-2.538 F200.000
G1 X23.084 Y6.314 Z-2.550 F200.000
G1 X22.981 Y6.155 Z-2.562 F200.000
G1 X22.827 Y6.045 Z-2.574 F200.000
G1 X22.643 Y6.001 Z-2.585 F200.000
G1 X22.455 Y6.028 Z-2.597 F200.000
G1 X22.291 Y6.123 Z-2.609 F200.000
G1 X22.175 Y6.273 Z-2.621 F200.000
G1 X22.120 Y6.500 Z-2.636 F200.000
G1 X22.156 Y6.686 Z-2.648 F200.000
G1 X22.259 Y6.845 Z-2.659 F200.000
G1 X22.413 Y6.955 Z-2.671 F200.000
G1 X22.597 Y6.999 Z-2.683 F200.000
G1 X22.785 Y6.972 Z-2.695 F200.000
G1 X22.949 Y6.877 Z-2.707 F200.000
G1 X23.065 Y6.727 Z-2.719 F200.000
G1 X23.120 Y6.500 Z-2.733 F200.000
G1 X23.084 Y6.314 Z-2.745 F200.000
G1 X22.981 Y6.155 Z-2.757 F200.000
G1 X22.827 Y6.045 Z-2.769 F200.000
G1 X22.643 Y6.001 Z-2.781 F200.000
G1 X22.455 Y6.028 Z-2.793 F200.000
G1 X22.291 Y6.123 Z-2.804 F200.000
G1 X22.175 Y6.273 Z-2.816 F200.000
G1 X22.120 Y6.500 Z-2.831 F200.000
G1 X22.156 Y6.686 Z-2.843 F200.000
G1 X22.259 Y6.845 Z-2.855 F200.000
G1 X22.413 Y6.955 Z-2.867 F200.000
G1 X22.597 Y6.999 Z-2.878 F200.000
G1 X22.785 Y6.972 Z-2.890 F200.000
G1 X22.949 Y6.877 Z-2.902 F200.000
G1 X23.065 Y6.727 Z-2.914 F200.000
G1 X23.120 Y6.500 Z-2.929 F200.000
G1 X23.084 Y6.314 Z-2.940 F200.000
G1 X22.981 Y6.155 Z-2.952 F200.000
G1 X22.827 Y6.045 Z-2.964 F200.000
G1 X22.643 Y6.001 Z-2.976 F200.000
G1 X22.455 Y6.028 Z-2.988 F200.000
G1 X22.291 Y6.123 Z-3.000 F200.000
G1 X22.175 Y6.273 Z-3.012 F200.000
G1 X22.120 Y6.500 Z-3.026 F200.000
G1 X22.156 Y6.686 Z-3.038 F200.000
G1 X22.259 Y6.845 Z-3.050 F200.000
G1 X22.413 Y6.955 Z-3.062 F200.000
G1 X22.597 Y6.999 Z-3.074 F200.000
G1 X22.785 Y6.972 Z-3.085 F200.000
G1 X22.949 Y6.877 Z-3.097 F200.000
G1 X23.065 Y6.727 Z-3.109 F200.000
G1 X23.120 Y6.500 Z-3.124 F200.000
G1 X23.084 Y6.314 Z-3.136 F200.000
G1 X22.981 Y6.155 Z-3.148 F200.000
G1 X22.827 Y6.045 Z-3.159 F200.000
G1 X22.643 Y6.001 Z-3.171 F200.000
G1 X22.455 Y6.028 Z-3.183 F200.000
G1 X22.291 Y6.123 Z-3.195 F200.000
G1 X22.175 Y6.273 Z-3.207 F200.000
G1 X22.120 Y6.500 Z-3.221 F200.000
G1 X22.156 Y6.686 Z-3.233 F200.000
G1 X22.259 Y6.845 Z-3.245 F200.000
G1 X22.413 Y6.955 Z-3.257 F200.000
G1 X22.597 Y6.999 Z-3.269 F200.000
G1 X22.785 Y6.972 Z-3.281 F200.000
G1 X22.949 Y6.877 Z-3.293 F200.000
G1 X23.065 Y6.727 Z-3.304 F200.000
G1 X23.120 Y6.500 Z-3.319 F200.000
G1 X23.084 Y6.314 Z-3.331 F200.000
G1 X22.981 Y6.155 Z-3.343 F200.000
G1 X22.827 Y6.045 Z-3.355 F200.000
G1 X22.643 Y6.001 Z-3.366 F200.000
G1 X22.455 Y6.028 Z-3.378 F200.000
G1 X22.291 Y6.123 Z-3.390 F200.000
G1 X22.175 Y6.273 Z-3.402 F200.000
G1 X22.120 Y6.500 Z-3.417 F200.000
G1 X22.156 Y6.686 Z-3.429 F200.000
G1 X22.259 Y6.845 Z-3.440 F200.000
G1 X22.413 Y6.955 Z-3.452 F200.000
G1 X22.597 Y6.999 Z-3.464 F200.000
G1 X22.785 Y6.972 Z-3.476 F200.000
G1 X22.949 Y6.877 Z-3.488 F200.000
G1 X23.065 Y6.727 Z-3.500 F200.000
G1 X23.120 Y6.500 Z-3.514 F200.000
G1 X23.084 Y6.314 Z-3.526 F200.000
G1 X22.981 Y6.155 Z-3.538 F200.000
G1 X22.827 Y6.045 Z-3.550 F200.000
G1 X22.643 Y6.001 Z-3.562 F200.000
G1 X22.455 Y6.028 Z-3.574 F200.000
G1 X22.291 Y6.123 Z-3.585 F200.000
G1 X22.175 Y6.273 Z-3.597 F200.000
G1 X22.120 Y6.500 Z-3.612 F200.000
G1 X22.156 Y6.686 Z-3.624 F200.000
G1 X22.259 Y6.845 Z-3.636 F200.000
G1 X22.413 Y6.955 Z-3.647 F200.000
G1 X22.597 Y6.999 Z-3.659 F200.000
G1 X22.785 Y6.972 Z-3.671 F200.000
G1 X22.949 Y6.877 Z-3.683 F200.000
G1 X23.065 Y6.727 Z-3.695 F200.000
G1 X23.120 Y6.500 Z-3.710 F200.000
G1 X23.084 Y6.314 Z-3.721 F200.000
G1 X22.981 Y6.155 Z-3.733 F200.000
G1 X22.827 Y6.045 Z-3.745 F200.000
G1 X22.643 Y6.001 Z-3.757 F200.000
G1 X22.455 Y6.028 Z-3.769 F200.000
G1 X22.291 Y6.123 Z-3.781 F200.000
G1 X22.175 Y6.273 Z-3.792 F200.000
G1 X22.120 Y6.500 Z-3.807 F200.000
G1 X22.156 Y6.686 Z-3.819 F200.000
G1 X22.259 Y6.845 Z-3.831 F200.000
G1 X22.413 Y6.955 Z-3.843 F200.000
G1 X22.597 Y6.999 Z-3.855 F200.000
G1 X22.785 Y6.972 Z-3.866 F200.000
G1 X22.949 Y6.877 Z-3.878 F200.000
G1 X23.065 Y6.727 Z-3.890 F200.000
G1 X23.120 Y6.500 Z-3.905 F200.000
G1 X23.084 Y6.314 Z-3.917 F200.000
G1 X22.981 Y6.155 Z-3.928 F200.000
G1 X22.827 Y6.045 Z-3.940 F200.000
G1 X22.643 Y6.001 Z-3.952 F200.000
G1 X22.455 Y6.028 Z-3.964 F200.000
G1 X22.291 Y6.123 Z-3.976 F200.000
G1 X22.175 Y6.273 Z-3.988 F200.000
G1 X22.120 Y6.500 Z-4.002 F200.000
G1 X22.156 Y6.686 Z-4.014 F200.000
G1 X22.259 Y6.845 Z-4.026 F200.000
G1 X22.413 Y6.955 Z-4.038 F200.000
G1 X22.597 Y6.999 Z-4.050 F200.000
G1 X22.785 Y6.972 Z-4.062 F200.000
G1 X22.949 Y6.877 Z-4.073 F200.000
G1 X23.065 Y6.727 Z-4.085 F200.000
G1 X23.120 Y6.500 Z-4.100 F200.000
G2 X22.120 Y6.500 Z-4.100 I-0.500 J0.000 K0.000 F200.000
G2 X23.120 Y6.500 Z-4.100 I0.500 J0.000 K0.000 F200.000
G0 X23.120 Y6.500 Z3.000
G0 X35.120 Y6.500 Z3.000
G1 X35.120 Y6.500 Z0.000 F150.000
G1 X35.084 Y6.314 Z-0.012 F200.000
G1 X34.981 Y6.155 Z-0.024 F200.000
G1 X34.827 Y6.045 Z-0.036 F200.000
G1 X34.643 Y6.001 Z-0.047 F200.000
G1 X34.455 Y6.028 Z-0.059 F200.000
G1 X34.291 Y6.123 Z-0.071 F200.000
G1 X34.175 Y6.273 Z-0.083 F200.000
G1 X34.120 Y6.500 Z-0.098 F200.000
G1 X34.156 Y6.686 Z-0.109 F200.000
G1 X34.259 Y6.845 Z-0.121 F200.000
G1 X34.413 Y6.955 Z-0.133 F200.000
G1 X34.597 Y6.999 Z-0.145 F200.000
G1 X34.785 Y6.972 Z-0.157 F200.000
G1 X34.949 Y6.877 Z-0.169 F200.000
G1 X35.065 Y6.727 Z-0.181 F200.000
G1 X35.120 Y6.500 Z-0.195 F200.000
G1 X35.084 Y6.314 Z-0.207 F200.000
G1 X34.981 Y6.155 Z-0.219 F200.000
G1 X34.827 Y6.045 Z-0.231 F200.000
G1 X34.643 Y6.001 Z-0.243 F200.000
G1 X34.455 Y6.028 Z-0.254 F200.000
G1 X34.291 Y6.123 Z-0.266 F200.000
G1 X34.175 Y6.273 Z-0.278 F200.000
G1 X34.120 Y6.500 Z-0.293 F200.000
G1 X34.156 Y6.686 Z-0.305 F200.000
G1 X34.259 Y6.845 Z-0.317 F200.000
G1 X34.413 Y6.955 Z-0.328 F200.000
G1 X34.597 Y6.999 Z-0.340 F200.000
G1 X34.785 Y6.972 Z-0.352 F200.000
G1 X34.949 Y6.877 Z-0.364 F200.000
G1 X35.065 Y6.727 Z-0.376 F200.000
G1 X35.120 Y6.500 Z-0.390 F200.000
G1 X35.084 Y6.314 Z-0.402 F200.000
G1 X34.981 Y6.155 Z-0.414 F200.000
G1 X34.827 Y6.045 Z-0.426 F200.000
G1 X34.643 Y6.001 Z-0.438 F200.000
G1 X34.455 Y6.028 Z-0.450 F200.000
G1 X34.291 Y6.123 Z-0.462 F200.000
G1 X34.175 Y6.273 Z-0.473 F200.000
G1 X34.120 Y6.500 Z-0.488 F200.000
G1 X34.156 Y6.686 Z-0.500 F200.000
G1 X34.259 Y6.845 Z-0.512 F200.000
G1 X34.413 Y6.955 Z-0.524 F200.000
G1 X34.597 Y6.999 Z-0.535 F200.000
G1 X34.785 Y6.972 Z-0.547 F200.000
G1 X34.949 Y6.877 Z-0.559 F200.000
G1 X35.065 Y6.727 Z-0.571 F200.000
G1 X35.120 Y6.500 Z-0.586 F200.000
G1 X35.084 Y6.314 Z-0.598 F200.000
G1 X34.981 Y6.155 Z-0.609 F200.000
G1 X34.827 Y6.045 Z-0.621 F200.000
G1 X34.643 Y6.001 Z-0.633 F200.000
G1 X34.455 Y6.028 Z-0.645 F200.000
G1 X34.291 Y6.123 Z-0.657 F200.000
G1 X34.175 Y6.273 Z-0.669 F200.000
G1 X34.120 Y6.500 Z-0.683 F200.000
G1 X34.156 Y6.686 Z-0.695 F200.000
G1 X34.259 Y6.845 Z-0.707 F200.000
G1 X34.413 Y6.955 Z-0.719 F200.000
G1 X34.597 Y6.999 Z-0.731 F200.000
G1 X34.785 Y6.972 Z-0.743 F200.000
G1 X34.949 Y6.877 Z-0.754 F200.000
G1 X35.065 Y6.727 Z-0.766 F200.000
G1 X35.120 Y6.500 Z-0.781 F200.000
G1 X35.084 Y6.314 Z-0.793 F200.000
G1 X34.981 Y6.155 Z-0.805 F200.000
G1 X34.827 Y6.045 Z-0.817 F200.000
G1 X34.643 Y6.001 Z-0.828 F200.000
G1 X34.455 Y6.028 Z-0.840 F200.000
G1 X34.291 Y6.123 Z-0.852 F200.000
G1 X34.175 Y6.273 Z-0.864 F200.000
G1 X34.120 Y6.500 Z-0.879 F200.000
G1 X34.156 Y6.686 Z-0.890 F200.000
G1 X34.259 Y6.845 Z-0.902 F200.000
G1 X34.413 Y6.955 Z-0.914 F200.000
G1 X34.597 Y6.999 Z-0.926 F200.000
G1 X34.785 Y6.972 Z-0.938 F200.000
G1 X34.949 Y6.877 Z-0.950 F200.000
G1 X35.065 Y6.727 Z-0.962 F200.000
G1 X35.120 Y6.500 Z-0.976 F200.000
G1 X35.084 Y6.314 Z-0.988 F200.000
G1 X34.981 Y6.155 Z-1.000 F200.000
G1 X34.827 Y6.045 Z-1.012 F200.000
G1 X34.643 Y6.001 Z-1.024 F200.000
G1 X34.455 Y6.028 Z-1.035 F200.000
G1 X34.291 Y6.123 Z-1.047 F200.000
G1 X34.175 Y6.273 Z-1.059 F200.000
G1 X34.120 Y6.500 Z-1.074 F200.000
G1 X34.156 Y6.686 Z-1.086 F200.000
G1 X34.259 Y6.845 Z-1.098 F200.000
G1 X34.413 Y6.955 Z-1.109 F200.000
G1 X34.597 Y6.999 Z-1.121 F200.000
G1 X34.785 Y6.972 Z-1.133 F200.000
G1 X34.949 Y6.877 Z-1.145 F200.000
G1 X35.065 Y6.727 Z-1.157 F200.000
G1 X35.120 Y6.500 Z-1.171 F200.000
G1 X35.084 Y6.314 Z-1.183 F200.000
G1 X34.981 Y6.155 Z-1.195 F200.000
G1 X34.827 Y6.045 Z-1.207 F200.000
G1 X34.643 Y6.001 Z-1.219 F200.000
G1 X34.455 Y6.028 Z-1.231 F200.000
G1 X34.291 Y6.123 Z-1.243 F200.000
G1 X34.175 Y6.273 Z-1.254 F200.000
G1 X34.120 Y6.500 Z-1.269 F200.000
G1 X34.156 Y6.686 Z-1.281 F200.000
G1 X34.259 Y6.845 Z-1.293 F200.000
G1 X34.413 Y6.955 Z-1.305 F200.000
G1 X34.597 Y6.999 Z-1.316 F200.000
G1 X34.785 Y6.972 Z-1.328 F200.000
G1 X34.949 Y6.877 Z-1.340 F200.000
G1 X35.065 Y6.727 Z-1.352 F200.000
G1 X35.120 Y6.500 Z-1.367 F200.000
G1 X35.084 Y6.314 Z-1.379 F200.000
G1 X34.981 Y6.155 Z-1.390 F200.000
G1 X34.827 Y6.045 Z-1.402 F200.000
G1 X34.643 Y6.001 Z-1.414 F200.000
G1 X34.455 Y6.028 Z-1.426 F200.000
G1 X34.291 Y6.123 Z-1.438 F200.000
G1 X34.175 Y6.273 Z-1.450 F200.000
G1 X34.120 Y6.500 Z-1.464 F200.000
G1 X34.156 Y6.686 Z-1.476 F200.000
G1 X34.259 Y6.845 Z-1.488 F200.000
G1 X34.413 Y6.955 Z-1.500 F200.000
G1 X34.597 Y6.999 Z-1.512 F200.000
G1 X34.785 Y6.972 Z-1.524 F200.000
G1 X34.949 Y6.877 Z-1.535 F200.000
G1 X35.065 Y6.727 Z-1.547 F200.000
G1 X35.120 Y6.500 Z-1.562 F200.000
G1 X35.084 Y6.314 Z-1.574 F200.000
G1 X34.981 Y6.155 Z-1.586 F200.000
G1 X34.827 Y6.045 Z-1.597 F200.000
G1 X34.643 Y6.001 Z-1.609 F200.000
G1 X34.455 Y6.028 Z-1.621 F200.000
G1 X34.291 Y6.123 Z-1.633 F200.000
G1 X34.175 Y6.273 Z-1.645 F200.000
G1 X34.120 Y6.500 Z-1.660 F200.000
G1 X34.156 Y6.686 Z-1.671 F200.000
G1 X34.259 Y6.845 Z-1.683 F200.000
G1 X34.413 Y6.955 Z-1.695 F200.000
G1 X34.597 Y6.999 Z-1.707 F200.000
G1 X34.785 Y6.972 Z-1.719 F200.000
G1 X34.949 Y6.877 Z-1.731 F200.000
G1 X35.065 Y6.727 Z-1.742 F200.000
G1 X35.120 Y6.500 Z-1.757 F200.000
G1 X35.084 Y6.314 Z-1.769 F200.000
G1 X34.981 Y6.155 Z-1.781 F200.000
G1 X34.827 Y6.045 Z-1.793 F200.000
G1 X34.643 Y6.001 Z-1.805 F200.000
G1 X34.455 Y6.028 Z-1.816 F200.000
G1 X34.291 Y6.123 Z-1.828 F200.000
G1 X34.175 Y6.273 Z-1.840 F200.000
G1 X34.120 Y6.500 Z-1.855 F200.000
G1 X34.156 Y6.686 Z-1.867 F200.000
G1 X34.259 Y6.845 Z-1.878 F200.000
G1 X34.413 Y6.955 Z-1.890 F200.000
G1 X34.597 Y6.999 Z-1.902 F200.000
G1 X34.785 Y6.972 Z-1.914 F200.000
G1 X34.949 Y6.877 Z-1.926 F200.000
G1 X35.065 Y6.727 Z-1.938 F200.000
G1 X35.120 Y6.500 Z-1.952 F200.000
G1 X35.084 Y6.314 Z-1.964 F200.000
G1 X34.981 Y6.155 Z-1.976 F200.000
G1 X34.827 Y6.045 Z-1.988 F200.000
G1 X34.643 Y6.001 Z-2.000 F200.000
G1 X34.455 Y6.028 Z-2.012 F200.000
G1 X34.291 Y6.123 Z-2.023 F200.000
G1 X34.175 Y6.273 Z-2.035 F200.000
G1 X34.120 Y6.500 Z-2.050 F200.000
G1 X34.156 Y6.686 Z-2.062 F200.000
G1 X34.259 Y6.845 Z-2.074 F200.000
G1 X34.413 Y6.955 Z-2.086 F200.000
G1 X34.597 Y6.999 Z-2.097 F200.000
G1 X34.785 Y6.972 Z-2.109 F200.000
G1 X34.949 Y6.877 Z-2.121 F200.000
G1 X35.065 Y6.727 Z-2.133 F200.000
G1 X35.120 Y6.500 Z-2.148 F200.000
G1 X35.084 Y6.314 Z-2.159 F200.000
G1 X34.981 Y6.155 Z-2.171 F200.000
G1 X34.827 Y6.045 Z-2.183 F200.000
G1 X34.643 Y6.001 Z-2.195 F200.000
G1 X34.455 Y6.028 Z-2.207 F200.000
G1 X34.291 Y6.123 Z-2.219 F200.000
G1 X34.175 Y6.273 Z-2.231 F200.000
G1 X34.120 Y6.500 Z-2.245 F200.000
G1 X34.156 Y6.686 Z-2.257 F200.000
G1 X34.259 Y6.845 Z-2.269 F200.000
G1 X34.413 Y6.955 Z-2.281 F200.000
G1 X34.597 Y6.999 Z-2.293 F200.000
G1 X34.785 Y6.972 Z-2.304 F200.000
G1 X34.949 Y6.877 Z-2.316 F200.000
G1 X35.065 Y6.727 Z-2.328 F200.000
G1 X35.120 Y6.500 Z-2.343 F200.000
G1 X35.084 Y6.314 Z-2.355 F200.000
G1 X34.981 Y6.155 Z-2.367 F200.000
G1 X34.827 Y6.045 Z-2.378 F200.000
G1 X34.643 Y6.001 Z-2.390 F200.000
G1 X34.455 Y6.028 Z-2.402 F200.000
G1 X34.291 Y6.123 Z-2.414 F200.000
G1 X34.175 Y6.273 Z-2.426 F200.000
G1 X34.120 Y6.500 Z-2.440 F200.000
G1 X34.156 Y6.686 Z-2.452 F200.000
G1 X34.259 Y6.845 Z-2.464 F200.000
G1 X34.413 Y6.955 Z-2.476 F200.000
G1 X34.597 Y6.999 Z-2.488 F200.000
G1 X34.785 Y6.972 Z-2.500 F200.000
G1 X34.949 Y6.877 Z-2.512 F200.000
G1 X35.065 Y6.727 Z-2.523 F200.000
G1 X35.120 Y6.500 Z-2.538 F200.000
G1 X35.084 Y6.314 Z-2.550 F200.000
G1 X34.981 Y6.155 Z-2.562 F200.000
G1 X34.827 Y6.045 Z-2.574 F200.000
G1 X34.643 Y6.001 Z-2.585 F200.000
G1 X34.455 Y6.028 Z-2.597 F200.000
G1 X34.291 Y6.123 Z-2.609 F200.000
G1 X34.175 Y6.273 Z-2.621 F200.000
G1 X34.120 Y6.500 Z-2.636 F200.000
G1 X34.156 Y6.686 Z-2.648 F200.000
G1 X34.259 Y6.845 Z-2.659 F200.000
G1 X34.413 Y6.955 Z-2.671 F200.000
G1 X34.597 Y6.999 Z-2.683 F200.000
G1 X34.785 Y6.972 Z-2.695 F200.000
G1 X34.949 Y6.877 Z-2.707 F200.000
G1 X35.065 Y6.727 Z-2.719 F200.000
G1 X35.120 Y6.500 Z-2.733 F200.000
G1 X35.084 Y6.314 Z-2.745 F200.000
G1 X34.981 Y6.155 Z-2.757 F200.000
G1 X34.827 Y6.045 Z-2.769 F200.000
G1 X34.643 Y6.001 Z-2.781 F200.000
G1 X34.455 Y6.028 Z-2.793 F200.000
G1 X34.291 Y6.123 Z-2.804 F200.000
G1 X34.175 Y6.273 Z-2.816 F200.000
G1 X34.120 Y6.500 Z-2.831 F200.000
G1 X34.156 Y6.686 Z-2.843 F200.000
G1 X34.259 Y6.845 Z-2.855 F200.000
G1 X34.413 Y6.955 Z-2.867 F200.000
G1 X34.597 Y6.999 Z-2.878 F200.000
G1 X34.785 Y6.972 Z-2.890 F200.000
G1 X34.949 Y6.877 Z-2.902 F200.000
G1 X35.065 Y6.727 Z-2.914 F200.000
G1 X35.120 Y6.500 Z-2.929 F200.000
G1 X35.084 Y6.314 Z-2.940 F200.000
G1 X34.981 Y6.155 Z-2.952 F200.000
G1 X34.827 Y6.045 Z-2.964 F200.000
G1 X34.643 Y6.001 Z-2.976 F200.000
G1 X34.455 Y6.028 Z-2.988 F200.000
G1 X34.291 Y6.123 Z-3.000 F200.000
G1 X34.175 Y6.273 Z-3.012 F200.000
G1 X34.120 Y6.500 Z-3.026 F200.000
G1 X34.156 Y6.686 Z-3.038 F200.000
G1 X34.259 Y6.845 Z-3.050 F200.000
G1 X34.413 Y6.955 Z-3.062 F200.000
G1 X34.597 Y6.999 Z-3.074 F200.000
G1 X34.785 Y6.972 Z-3.085 F200.000
G1 X34.949 Y6.877 Z-3.097 F200.000
G1 X35.065 Y6.727 Z-3.109 F200.000
G1 X35.120 Y6.500 Z-3.124 F200.000
G1 X35.084 Y6.314 Z-3.136 F200.000
G1 X34.981 Y6.155 Z-3.148 F200.000
G1 X34.827 Y6.045 Z-3.159 F200.000
G1 X34.643 Y6.001 Z-3.171 F200.000
G1 X34.455 Y6.028 Z-3.183 F200.000
G1 X34.291 Y6.123 Z-3.195 F200.000
G1 X34.175 Y6.273 Z-3.207 F200.000
G1 X34.120 Y6.500 Z-3.221 F200.000
G1 X34.156 Y6.686 Z-3.233 F200.000
G1 X34.259 Y6.845 Z-3.245 F200.000
G1 X34.413 Y6.955 Z-3.257 F200.000
G1 X34.597 Y6.999 Z-3.269 F200.000
G1 X34.785 Y6.972 Z-3.281 F200.000
G1 X34.949 Y6.877 Z-3.293 F200.000
G1 X35.065 Y6.727 Z-3.304 F200.000
G1 X35.120 Y6.500 Z-3.319 F200.000
G1 X35.084 Y6.314 Z-3.331 F200.000
G1 X34.981 Y6.155 Z-3.343 F200.000
G1 X34.827 Y6.045 Z-3.355 F200.000
G1 X34.643 Y6.001 Z-3.366 F200.000
G1 X34.455 Y6.028 Z-3.378 F200.000
G1 X34.291 Y6.123 Z-3.390 F200.000
G1 X34.175 Y6.273 Z-3.402 F200.000
G1 X34.120 Y6.500 Z-3.417 F200.000
G1 X34.156 Y6.686 Z-3.429 F200.000
G1 X34.259 Y6.845 Z-3.440 F200.000
G1 X34.413 Y6.955 Z-3.452 F200.000
G1 X34.597 Y6.999 Z-3.464 F200.000
G1 X34.785 Y6.972 Z-3.476 F200.000
G1 X34.949 Y6.877 Z-3.488 F200.000
G1 X35.065 Y6.727 Z-3.500 F200.000
G1 X35.120 Y6.500 Z-3.514 F200.000
G1 X35.084 Y6.314 Z-3.526 F200.000
G1 X34.981 Y6.155 Z-3.538 F200.000
G1 X34.827 Y6.045 Z-3.550 F200.000
G1 X34.643 Y6.001 Z-3.562 F200.000
G1 X34.455 Y6.028 Z-3.574 F200.000
G1 X34.291 Y6.123 Z-3.585 F200.000
G1 X34.175 Y6.273 Z-3.597 F200.000
G1 X34.120 Y6.500 Z-3.612 F200.000
G1 X34.156 Y6.686 Z-3.624 F200.000
G1 X34.259 Y6.845 Z-3.636 F200.000
G1 X34.413 Y6.955 Z-3.647 F200.000
G1 X34.597 Y6.999 Z-3.659 F200.000
G1 X34.785 Y6.972 Z-3.671 F200.000
